def Program():
  Tool_1Tcp = p[0, 0, 0.076, 0, 0, 1.5708]
  Tool_1Weight = 0.1
  Tool_1Cog = [0, 0, 0.076]
  Speed000 = 0.05
  Zone000 = 0.0001
  set_tcp(Tool_1Tcp)
  set_payload(Tool_1Weight, Tool_1Cog)
  movej([2.758, -0.9905, 2.0214, -2.6017, -1.5708, 1.1872], a=3.1416, v=0.1571, r=Zone000)
  movel(p[0.75361, -0.12731, -0.02, 2.22144, 2.22144, 0], a=1, v=Speed000, r=Zone000)
  movel(p[0.75361, -0.12697, -0.02, 2.22144, 2.22144, 0], a=1, v=Speed000, r=Zone000)
  movel(p[0.75395, -0.12731, -0.02, 2.22144, 2.22144, 0], a=1, v=Speed000, r=Zone000)
  movel(p[0.75395, -0.12697, -0.02, 2.22144, 2.22144, 0], a=1, v=Speed000, r=Zone000)
  movel(p[0.75428, -0.12731, -0.02, 2.22144, 2.22144, 0], a=1, v=Speed000, r=Zone000)
  movel(p[0.75428, -0.12697, -0.02, 2.22144, 2.22144, 0], a=1, v=Speed000, r=Zone000)
  movel(p[0.75461, -0.12731, -0.02, 2.22144, 2.22144, 0], a=1, v=Speed000, r=Zone000)
  movel(p[0.75461, -0.12697, -0.02, 2.22144, 2.22144, 0], a=1, v=Speed000, r=Zone000)
  movel(p[0.75495, -0.12731, -0.02, 2.22144, 2.22144, 0], a=1, v=Speed000, r=Zone000)
  movel(p[0.75495, -0.12697, -0.02, 2.22144, 2.22144, 0], a=1, v=Speed000, r=Zone000)
  movel(p[0.75528, -0.12731, -0.02, 2.22144, 2.22144, 0], a=1, v=Speed000, r=Zone000)
  movel(p[0.75528, -0.12697, -0.02, 2.22144, 2.22144, 0], a=1, v=Speed000, r=Zone000)
  movel(p[0.75561, -0.12731, -0.02, 2.22144, 2.22144, 0], a=1, v=Speed000, r=Zone000)
  movel(p[0.75561, -0.12697, -0.02, 2.22144, 2.22144, 0], a=1, v=Speed000, r=Zone000)
  movel(p[0.75595, -0.12731, -0.02, 2.22144, 2.22144, 0], a=1, v=Speed000, r=Zone000)
  movel(p[0.75595, -0.12697, -0.02, 2.22144, 2.22144, 0], a=1, v=Speed000, r=Zone000)
  movel(p[0.75628, -0.12731, -0.02, 2.22144, 2.22144, 0], a=1, v=Speed000, r=Zone000)
  movel(p[0.75628, -0.12697, -0.02, 2.22144, 2.22144, 0], a=1, v=Speed000, r=Zone000)
  movel(p[0.75661, -0.12731, -0.02, 2.22144, 2.22144, 0], a=1, v=Speed000, r=Zone000)
  movel(p[0.75661, -0.12697, -0.02, 2.22144, 2.22144, 0], a=1, v=Speed000, r=Zone000)
  movel(p[0.75695, -0.12697, -0.02, 2.22144, 2.22144, 0], a=1, v=Speed000, r=Zone000)
  movel(p[0.75728, -0.12697, -0.02, 2.22144, 2.22144, 0], a=1, v=Speed000, r=Zone000)
  movel(p[0.75761, -0.12697, -0.02, 2.22144, 2.22144, 0], a=1, v=Speed000, r=Zone000)
  movel(p[0.75795, -0.12697, -0.02, 2.22144, 2.22144, 0], a=1, v=Speed000, r=Zone000)
  movel(p[0.75828, -0.12664, -0.02, 2.22144, 2.22144, 0], a=1, v=Speed000, r=Zone000)
  movel(p[0.75828, -0.12631, -0.02, 2.22144, 2.22144, 0], a=1, v=Speed000, r=Zone000)
  movel(p[0.75795, -0.12664, -0.02, 2.22144, 2.22144, 0], a=1, v=Speed000, r=Zone000)
  movel(p[0.75795, -0.12631, -0.02, 2.22144, 2.22144, 0], a=1, v=Speed000, r=Zone000)
  movel(p[0.75761, -0.12664, -0.02, 2.22144, 2.22144, 0], a=1, v=Speed000, r=Zone000)
  movel(p[0.75761, -0.12631, -0.02, 2.22144, 2.22144, 0], a=1, v=Speed000, r=Zone000)
  movel(p[0.75728, -0.12664, -0.02, 2.22144, 2.22144, 0], a=1, v=Speed000, r=Zone000)
  movel(p[0.75728, -0.12631, -0.02, 2.22144, 2.22144, 0], a=1, v=Speed000, r=Zone000)
  movel(p[0.75695, -0.12664, -0.02, 2.22144, 2.22144, 0], a=1, v=Speed000, r=Zone000)
  movel(p[0.75695, -0.12631, -0.02, 2.22144, 2.22144, 0], a=1, v=Speed000, r=Zone000)
  movel(p[0.75661, -0.12664, -0.02, 2.22144, 2.22144, 0], a=1, v=Speed000, r=Zone000)
  movel(p[0.75661, -0.12631, -0.02, 2.22144, 2.22144, 0], a=1, v=Speed000, r=Zone000)
  movel(p[0.75528, -0.12631, -0.02, 2.22144, 2.22144, 0], a=1, v=Speed000, r=Zone000)
  movel(p[0.75495, -0.12631, -0.02, 2.22144, 2.22144, 0], a=1, v=Speed000, r=Zone000)
  movel(p[0.75461, -0.12631, -0.02, 2.22144, 2.22144, 0], a=1, v=Speed000, r=Zone000)
  movel(p[0.75428, -0.12631, -0.02, 2.22144, 2.22144, 0], a=1, v=Speed000, r=Zone000)
  movel(p[0.75395, -0.12664, -0.02, 2.22144, 2.22144, 0], a=1, v=Speed000, r=Zone000)
  movel(p[0.75395, -0.12631, -0.02, 2.22144, 2.22144, 0], a=1, v=Speed000, r=Zone000)
  movel(p[0.75361, -0.12664, -0.02, 2.22144, 2.22144, 0], a=1, v=Speed000, r=Zone000)
  movel(p[0.75361, -0.12631, -0.02, 2.22144, 2.22144, 0], a=1, v=Speed000, r=Zone000)
  movel(p[0.75328, -0.12664, -0.02, 2.22144, 2.22144, 0], a=1, v=Speed000, r=Zone000)
  movel(p[0.75328, -0.12631, -0.02, 2.22144, 2.22144, 0], a=1, v=Speed000, r=Zone000)
  movel(p[0.75295, -0.12664, -0.02, 2.22144, 2.22144, 0], a=1, v=Speed000, r=Zone000)
  movel(p[0.75295, -0.12631, -0.02, 2.22144, 2.22144, 0], a=1, v=Speed000, r=Zone000)
  movel(p[0.75261, -0.12664, -0.02, 2.22144, 2.22144, 0], a=1, v=Speed000, r=Zone000)
  movel(p[0.75261, -0.12631, -0.02, 2.22144, 2.22144, 0], a=1, v=Speed000, r=Zone000)
  movel(p[0.75228, -0.12664, -0.02, 2.22144, 2.22144, 0], a=1, v=Speed000, r=Zone000)
  movel(p[0.75228, -0.12631, -0.02, 2.22144, 2.22144, 0], a=1, v=Speed000, r=Zone000)
  movel(p[0.75161, -0.12564, -0.02, 2.22144, 2.22144, 0], a=1, v=Speed000, r=Zone000)
  movel(p[0.75195, -0.12597, -0.02, 2.22144, 2.22144, 0], a=1, v=Speed000, r=Zone000)
  movel(p[0.75195, -0.12564, -0.02, 2.22144, 2.22144, 0], a=1, v=Speed000, r=Zone000)
  movel(p[0.75228, -0.12597, -0.02, 2.22144, 2.22144, 0], a=1, v=Speed000, r=Zone000)
  movel(p[0.75228, -0.12564, -0.02, 2.22144, 2.22144, 0], a=1, v=Speed000, r=Zone000)
  movel(p[0.75261, -0.12597, -0.02, 2.22144, 2.22144, 0], a=1, v=Speed000, r=Zone000)
  movel(p[0.75261, -0.12564, -0.02, 2.22144, 2.22144, 0], a=1, v=Speed000, r=Zone000)
  movel(p[0.75295, -0.12597, -0.02, 2.22144, 2.22144, 0], a=1, v=Speed000, r=Zone000)
  movel(p[0.75328, -0.12597, -0.02, 2.22144, 2.22144, 0], a=1, v=Speed000, r=Zone000)
  movel(p[0.75361, -0.12597, -0.02, 2.22144, 2.22144, 0], a=1, v=Speed000, r=Zone000)
  movel(p[0.75361, -0.12564, -0.02, 2.22144, 2.22144, 0], a=1, v=Speed000, r=Zone000)
  movel(p[0.75395, -0.12597, -0.02, 2.22144, 2.22144, 0], a=1, v=Speed000, r=Zone000)
  movel(p[0.75395, -0.12564, -0.02, 2.22144, 2.22144, 0], a=1, v=Speed000, r=Zone000)
  movel(p[0.75428, -0.12597, -0.02, 2.22144, 2.22144, 0], a=1, v=Speed000, r=Zone000)
  movel(p[0.75428, -0.12564, -0.02, 2.22144, 2.22144, 0], a=1, v=Speed000, r=Zone000)
  movel(p[0.75461, -0.12597, -0.02, 2.22144, 2.22144, 0], a=1, v=Speed000, r=Zone000)
  movel(p[0.75461, -0.12564, -0.02, 2.22144, 2.22144, 0], a=1, v=Speed000, r=Zone000)
  movel(p[0.75495, -0.12597, -0.02, 2.22144, 2.22144, 0], a=1, v=Speed000, r=Zone000)
  movel(p[0.75495, -0.12564, -0.02, 2.22144, 2.22144, 0], a=1, v=Speed000, r=Zone000)
  movel(p[0.75528, -0.12597, -0.02, 2.22144, 2.22144, 0], a=1, v=Speed000, r=Zone000)
  movel(p[0.75528, -0.12564, -0.02, 2.22144, 2.22144, 0], a=1, v=Speed000, r=Zone000)
  movel(p[0.75561, -0.12597, -0.02, 2.22144, 2.22144, 0], a=1, v=Speed000, r=Zone000)
  movel(p[0.75561, -0.12564, -0.02, 2.22144, 2.22144, 0], a=1, v=Speed000, r=Zone000)
  movel(p[0.75595, -0.12597, -0.02, 2.22144, 2.22144, 0], a=1, v=Speed000, r=Zone000)
  movel(p[0.75595, -0.12564, -0.02, 2.22144, 2.22144, 0], a=1, v=Speed000, r=Zone000)
  movel(p[0.75628, -0.12597, -0.02, 2.22144, 2.22144, 0], a=1, v=Speed000, r=Zone000)
  movel(p[0.75628, -0.12564, -0.02, 2.22144, 2.22144, 0], a=1, v=Speed000, r=Zone000)
  movel(p[0.75661, -0.12597, -0.02, 2.22144, 2.22144, 0], a=1, v=Speed000, r=Zone000)
  movel(p[0.75661, -0.12564, -0.02, 2.22144, 2.22144, 0], a=1, v=Speed000, r=Zone000)
  movel(p[0.75695, -0.12597, -0.02, 2.22144, 2.22144, 0], a=1, v=Speed000, r=Zone000)
  movel(p[0.75695, -0.12564, -0.02, 2.22144, 2.22144, 0], a=1, v=Speed000, r=Zone000)
  movel(p[0.75728, -0.12597, -0.02, 2.22144, 2.22144, 0], a=1, v=Speed000, r=Zone000)
  movel(p[0.75728, -0.12564, -0.02, 2.22144, 2.22144, 0], a=1, v=Speed000, r=Zone000)
  movel(p[0.75761, -0.12597, -0.02, 2.22144, 2.22144, 0], a=1, v=Speed000, r=Zone000)
  movel(p[0.75761, -0.12564, -0.02, 2.22144, 2.22144, 0], a=1, v=Speed000, r=Zone000)
  movel(p[0.75795, -0.12597, -0.02, 2.22144, 2.22144, 0], a=1, v=Speed000, r=Zone000)
  movel(p[0.75795, -0.12564, -0.02, 2.22144, 2.22144, 0], a=1, v=Speed000, r=Zone000)
  movel(p[0.75828, -0.12597, -0.02, 2.22144, 2.22144, 0], a=1, v=Speed000, r=Zone000)
  movel(p[0.75828, -0.12564, -0.02, 2.22144, 2.22144, 0], a=1, v=Speed000, r=Zone000)
  movel(p[0.75861, -0.12597, -0.015, 2.22144, 2.22144, 0], a=1, v=Speed000, r=Zone000)
  movel(p[0.76895, -0.12497, -0.015, 2.22144, 2.22144, 0], a=1, v=Speed000, r=Zone000)
  movel(p[0.76628, -0.12497, -0.015, 2.22144, 2.22144, 0], a=1, v=Speed000, r=Zone000)
  movel(p[0.76595, -0.12531, -0.02, 2.22144, 2.22144, 0], a=1, v=Speed000, r=Zone000)
  movel(p[0.76595, -0.12497, -0.02, 2.22144, 2.22144, 0], a=1, v=Speed000, r=Zone000)
  movel(p[0.76561, -0.12531, -0.02, 2.22144, 2.22144, 0], a=1, v=Speed000, r=Zone000)
  movel(p[0.76561, -0.12497, -0.015, 2.22144, 2.22144, 0], a=1, v=Speed000, r=Zone000)
  movel(p[0.75828, -0.12531, -0.015, 2.22144, 2.22144, 0], a=1, v=Speed000, r=Zone000)
  movel(p[0.75828, -0.12497, -0.02, 2.22144, 2.22144, 0], a=1, v=Speed000, r=Zone000)
  movel(p[0.75795, -0.12531, -0.02, 2.22144, 2.22144, 0], a=1, v=Speed000, r=Zone000)
  movel(p[0.75795, -0.12497, -0.02, 2.22144, 2.22144, 0], a=1, v=Speed000, r=Zone000)
  movel(p[0.75761, -0.12531, -0.02, 2.22144, 2.22144, 0], a=1, v=Speed000, r=Zone000)
  movel(p[0.75761, -0.12497, -0.02, 2.22144, 2.22144, 0], a=1, v=Speed000, r=Zone000)
  movel(p[0.75728, -0.12531, -0.02, 2.22144, 2.22144, 0], a=1, v=Speed000, r=Zone000)
  movel(p[0.75728, -0.12497, -0.02, 2.22144, 2.22144, 0], a=1, v=Speed000, r=Zone000)
  movel(p[0.75695, -0.12531, -0.02, 2.22144, 2.22144, 0], a=1, v=Speed000, r=Zone000)
  movel(p[0.75695, -0.12497, -0.02, 2.22144, 2.22144, 0], a=1, v=Speed000, r=Zone000)
  movel(p[0.75661, -0.12531, -0.02, 2.22144, 2.22144, 0], a=1, v=Speed000, r=Zone000)
  movel(p[0.75661, -0.12497, -0.02, 2.22144, 2.22144, 0], a=1, v=Speed000, r=Zone000)
  movel(p[0.75628, -0.12531, -0.02, 2.22144, 2.22144, 0], a=1, v=Speed000, r=Zone000)
  movel(p[0.75628, -0.12497, -0.02, 2.22144, 2.22144, 0], a=1, v=Speed000, r=Zone000)
  movel(p[0.75595, -0.12531, -0.02, 2.22144, 2.22144, 0], a=1, v=Speed000, r=Zone000)
  movel(p[0.75561, -0.12531, -0.02, 2.22144, 2.22144, 0], a=1, v=Speed000, r=Zone000)
  movel(p[0.75528, -0.12531, -0.02, 2.22144, 2.22144, 0], a=1, v=Speed000, r=Zone000)
  movel(p[0.75528, -0.12497, -0.02, 2.22144, 2.22144, 0], a=1, v=Speed000, r=Zone000)
  movel(p[0.75495, -0.12531, -0.02, 2.22144, 2.22144, 0], a=1, v=Speed000, r=Zone000)
  movel(p[0.75495, -0.12497, -0.02, 2.22144, 2.22144, 0], a=1, v=Speed000, r=Zone000)
  movel(p[0.75461, -0.12531, -0.02, 2.22144, 2.22144, 0], a=1, v=Speed000, r=Zone000)
  movel(p[0.75461, -0.12497, -0.02, 2.22144, 2.22144, 0], a=1, v=Speed000, r=Zone000)
  movel(p[0.75428, -0.12531, -0.02, 2.22144, 2.22144, 0], a=1, v=Speed000, r=Zone000)
  movel(p[0.75428, -0.12497, -0.02, 2.22144, 2.22144, 0], a=1, v=Speed000, r=Zone000)
  movel(p[0.75395, -0.12531, -0.02, 2.22144, 2.22144, 0], a=1, v=Speed000, r=Zone000)
  movel(p[0.75395, -0.12497, -0.02, 2.22144, 2.22144, 0], a=1, v=Speed000, r=Zone000)
  movel(p[0.75361, -0.12531, -0.02, 2.22144, 2.22144, 0], a=1, v=Speed000, r=Zone000)
  movel(p[0.75361, -0.12497, -0.02, 2.22144, 2.22144, 0], a=1, v=Speed000, r=Zone000)
  movel(p[0.75328, -0.12531, -0.02, 2.22144, 2.22144, 0], a=1, v=Speed000, r=Zone000)
  movel(p[0.75328, -0.12497, -0.02, 2.22144, 2.22144, 0], a=1, v=Speed000, r=Zone000)
  movel(p[0.75295, -0.12531, -0.02, 2.22144, 2.22144, 0], a=1, v=Speed000, r=Zone000)
  movel(p[0.75295, -0.12497, -0.02, 2.22144, 2.22144, 0], a=1, v=Speed000, r=Zone000)
  movel(p[0.75261, -0.12531, -0.02, 2.22144, 2.22144, 0], a=1, v=Speed000, r=Zone000)
  movel(p[0.75261, -0.12497, -0.02, 2.22144, 2.22144, 0], a=1, v=Speed000, r=Zone000)
  movel(p[0.75228, -0.12531, -0.02, 2.22144, 2.22144, 0], a=1, v=Speed000, r=Zone000)
  movel(p[0.75228, -0.12497, -0.02, 2.22144, 2.22144, 0], a=1, v=Speed000, r=Zone000)
  movel(p[0.75195, -0.12531, -0.02, 2.22144, 2.22144, 0], a=1, v=Speed000, r=Zone000)
  movel(p[0.75195, -0.12497, -0.02, 2.22144, 2.22144, 0], a=1, v=Speed000, r=Zone000)
  movel(p[0.75161, -0.12531, -0.02, 2.22144, 2.22144, 0], a=1, v=Speed000, r=Zone000)
  movel(p[0.75161, -0.12497, -0.02, 2.22144, 2.22144, 0], a=1, v=Speed000, r=Zone000)
  movel(p[0.75161, -0.12464, -0.02, 2.22144, 2.22144, 0], a=1, v=Speed000, r=Zone000)
  movel(p[0.75195, -0.12464, -0.02, 2.22144, 2.22144, 0], a=1, v=Speed000, r=Zone000)
  movel(p[0.75228, -0.12464, -0.02, 2.22144, 2.22144, 0], a=1, v=Speed000, r=Zone000)
  movel(p[0.75261, -0.12464, -0.02, 2.22144, 2.22144, 0], a=1, v=Speed000, r=Zone000)
  movel(p[0.75295, -0.12464, -0.02, 2.22144, 2.22144, 0], a=1, v=Speed000, r=Zone000)
  movel(p[0.75328, -0.12464, -0.02, 2.22144, 2.22144, 0], a=1, v=Speed000, r=Zone000)
  movel(p[0.75361, -0.12464, -0.02, 2.22144, 2.22144, 0], a=1, v=Speed000, r=Zone000)
  movel(p[0.75361, -0.12431, -0.02, 2.22144, 2.22144, 0], a=1, v=Speed000, r=Zone000)
  movel(p[0.75395, -0.12464, -0.02, 2.22144, 2.22144, 0], a=1, v=Speed000, r=Zone000)
  movel(p[0.75395, -0.12431, -0.02, 2.22144, 2.22144, 0], a=1, v=Speed000, r=Zone000)
  movel(p[0.75428, -0.12464, -0.02, 2.22144, 2.22144, 0], a=1, v=Speed000, r=Zone000)
  movel(p[0.75428, -0.12431, -0.02, 2.22144, 2.22144, 0], a=1, v=Speed000, r=Zone000)
  movel(p[0.75461, -0.12464, -0.02, 2.22144, 2.22144, 0], a=1, v=Speed000, r=Zone000)
  movel(p[0.75461, -0.12431, -0.02, 2.22144, 2.22144, 0], a=1, v=Speed000, r=Zone000)
  movel(p[0.75495, -0.12464, -0.02, 2.22144, 2.22144, 0], a=1, v=Speed000, r=Zone000)
  movel(p[0.75495, -0.12431, -0.02, 2.22144, 2.22144, 0], a=1, v=Speed000, r=Zone000)
  movel(p[0.75528, -0.12464, -0.02, 2.22144, 2.22144, 0], a=1, v=Speed000, r=Zone000)
  movel(p[0.75528, -0.12431, -0.02, 2.22144, 2.22144, 0], a=1, v=Speed000, r=Zone000)
  movel(p[0.75561, -0.12464, -0.02, 2.22144, 2.22144, 0], a=1, v=Speed000, r=Zone000)
  movel(p[0.75561, -0.12431, -0.02, 2.22144, 2.22144, 0], a=1, v=Speed000, r=Zone000)
  movel(p[0.75595, -0.12464, -0.02, 2.22144, 2.22144, 0], a=1, v=Speed000, r=Zone000)
  movel(p[0.75595, -0.12431, -0.02, 2.22144, 2.22144, 0], a=1, v=Speed000, r=Zone000)
  movel(p[0.75628, -0.12464, -0.02, 2.22144, 2.22144, 0], a=1, v=Speed000, r=Zone000)
  movel(p[0.75628, -0.12431, -0.02, 2.22144, 2.22144, 0], a=1, v=Speed000, r=Zone000)
  movel(p[0.75661, -0.12464, -0.02, 2.22144, 2.22144, 0], a=1, v=Speed000, r=Zone000)
  movel(p[0.75661, -0.12431, -0.02, 2.22144, 2.22144, 0], a=1, v=Speed000, r=Zone000)
  movel(p[0.75695, -0.12464, -0.02, 2.22144, 2.22144, 0], a=1, v=Speed000, r=Zone000)
  movel(p[0.75695, -0.12431, -0.02, 2.22144, 2.22144, 0], a=1, v=Speed000, r=Zone000)
  movel(p[0.75728, -0.12464, -0.02, 2.22144, 2.22144, 0], a=1, v=Speed000, r=Zone000)
  movel(p[0.75728, -0.12431, -0.02, 2.22144, 2.22144, 0], a=1, v=Speed000, r=Zone000)
  movel(p[0.75761, -0.12464, -0.02, 2.22144, 2.22144, 0], a=1, v=Speed000, r=Zone000)
  movel(p[0.75761, -0.12431, -0.02, 2.22144, 2.22144, 0], a=1, v=Speed000, r=Zone000)
  movel(p[0.75795, -0.12464, -0.02, 2.22144, 2.22144, 0], a=1, v=Speed000, r=Zone000)
  movel(p[0.75795, -0.12431, -0.02, 2.22144, 2.22144, 0], a=1, v=Speed000, r=Zone000)
  movel(p[0.75828, -0.12464, -0.02, 2.22144, 2.22144, 0], a=1, v=Speed000, r=Zone000)
  movel(p[0.75828, -0.12431, -0.015, 2.22144, 2.22144, 0], a=1, v=Speed000, r=Zone000)
  movel(p[0.76528, -0.12464, -0.015, 2.22144, 2.22144, 0], a=1, v=Speed000, r=Zone000)
  movel(p[0.76528, -0.12431, -0.02, 2.22144, 2.22144, 0], a=1, v=Speed000, r=Zone000)
  movel(p[0.76561, -0.12464, -0.02, 2.22144, 2.22144, 0], a=1, v=Speed000, r=Zone000)
  movel(p[0.76561, -0.12431, -0.02, 2.22144, 2.22144, 0], a=1, v=Speed000, r=Zone000)
  movel(p[0.76595, -0.12464, -0.02, 2.22144, 2.22144, 0], a=1, v=Speed000, r=Zone000)
  movel(p[0.76595, -0.12431, -0.02, 2.22144, 2.22144, 0], a=1, v=Speed000, r=Zone000)
  movel(p[0.76628, -0.12464, -0.02, 2.22144, 2.22144, 0], a=1, v=Speed000, r=Zone000)
  movel(p[0.76628, -0.12431, -0.015, 2.22144, 2.22144, 0], a=1, v=Speed000, r=Zone000)
  movel(p[0.76861, -0.12464, -0.015, 2.22144, 2.22144, 0], a=1, v=Speed000, r=Zone000)
  movel(p[0.76895, -0.12464, -0.02, 2.22144, 2.22144, 0], a=1, v=Speed000, r=Zone000)
  movel(p[0.76895, -0.12431, -0.02, 2.22144, 2.22144, 0], a=1, v=Speed000, r=Zone000)
  movel(p[0.76928, -0.12464, -0.02, 2.22144, 2.22144, 0], a=1, v=Speed000, r=Zone000)
  movel(p[0.76928, -0.12431, -0.02, 2.22144, 2.22144, 0], a=1, v=Speed000, r=Zone000)
  movel(p[0.76961, -0.12464, -0.02, 2.22144, 2.22144, 0], a=1, v=Speed000, r=Zone000)
  movel(p[0.76961, -0.12431, -0.02, 2.22144, 2.22144, 0], a=1, v=Speed000, r=Zone000)
  movel(p[0.76995, -0.12464, -0.02, 2.22144, 2.22144, 0], a=1, v=Speed000, r=Zone000)
  movel(p[0.76995, -0.12431, -0.02, 2.22144, 2.22144, 0], a=1, v=Speed000, r=Zone000)
  movel(p[0.77028, -0.12464, -0.02, 2.22144, 2.22144, 0], a=1, v=Speed000, r=Zone000)
  movel(p[0.77028, -0.12431, -0.02, 2.22144, 2.22144, 0], a=1, v=Speed000, r=Zone000)
  movel(p[0.77061, -0.12431, -0.02, 2.22144, 2.22144, 0], a=1, v=Speed000, r=Zone000)
  movel(p[0.77095, -0.12431, -0.02, 2.22144, 2.22144, 0], a=1, v=Speed000, r=Zone000)
  movel(p[0.77128, -0.12431, -0.02, 2.22144, 2.22144, 0], a=1, v=Speed000, r=Zone000)
  movel(p[0.77195, -0.12397, -0.02, 2.22144, 2.22144, 0], a=1, v=Speed000, r=Zone000)
  movel(p[0.77161, -0.12397, -0.02, 2.22144, 2.22144, 0], a=1, v=Speed000, r=Zone000)
  movel(p[0.77128, -0.12397, -0.02, 2.22144, 2.22144, 0], a=1, v=Speed000, r=Zone000)
  movel(p[0.77095, -0.12397, -0.02, 2.22144, 2.22144, 0], a=1, v=Speed000, r=Zone000)
  movel(p[0.77061, -0.12397, -0.02, 2.22144, 2.22144, 0], a=1, v=Speed000, r=Zone000)
  movel(p[0.77028, -0.12397, -0.02, 2.22144, 2.22144, 0], a=1, v=Speed000, r=Zone000)
  movel(p[0.76995, -0.12397, -0.02, 2.22144, 2.22144, 0], a=1, v=Speed000, r=Zone000)
  movel(p[0.76961, -0.12397, -0.02, 2.22144, 2.22144, 0], a=1, v=Speed000, r=Zone000)
  movel(p[0.76928, -0.12397, -0.02, 2.22144, 2.22144, 0], a=1, v=Speed000, r=Zone000)
  movel(p[0.76895, -0.12397, -0.015, 2.22144, 2.22144, 0], a=1, v=Speed000, r=Zone000)
  movel(p[0.76728, -0.12397, -0.015, 2.22144, 2.22144, 0], a=1, v=Speed000, r=Zone000)
  movel(p[0.76695, -0.12397, -0.02, 2.22144, 2.22144, 0], a=1, v=Speed000, r=Zone000)
  movel(p[0.76628, -0.12397, -0.02, 2.22144, 2.22144, 0], a=1, v=Speed000, r=Zone000)
  movel(p[0.76595, -0.12397, -0.02, 2.22144, 2.22144, 0], a=1, v=Speed000, r=Zone000)
  movel(p[0.76561, -0.12397, -0.02, 2.22144, 2.22144, 0], a=1, v=Speed000, r=Zone000)
  movel(p[0.76528, -0.12397, -0.015, 2.22144, 2.22144, 0], a=1, v=Speed000, r=Zone000)
  movel(p[0.75828, -0.12397, -0.015, 2.22144, 2.22144, 0], a=1, v=Speed000, r=Zone000)
  movel(p[0.75795, -0.12397, -0.02, 2.22144, 2.22144, 0], a=1, v=Speed000, r=Zone000)
  movel(p[0.75761, -0.12397, -0.02, 2.22144, 2.22144, 0], a=1, v=Speed000, r=Zone000)
  movel(p[0.75728, -0.12397, -0.02, 2.22144, 2.22144, 0], a=1, v=Speed000, r=Zone000)
  movel(p[0.75695, -0.12397, -0.02, 2.22144, 2.22144, 0], a=1, v=Speed000, r=Zone000)
  movel(p[0.75661, -0.12397, -0.02, 2.22144, 2.22144, 0], a=1, v=Speed000, r=Zone000)
  movel(p[0.75628, -0.12397, -0.02, 2.22144, 2.22144, 0], a=1, v=Speed000, r=Zone000)
  movel(p[0.75595, -0.12397, -0.02, 2.22144, 2.22144, 0], a=1, v=Speed000, r=Zone000)
  movel(p[0.75561, -0.12397, -0.02, 2.22144, 2.22144, 0], a=1, v=Speed000, r=Zone000)
  movel(p[0.75528, -0.12397, -0.02, 2.22144, 2.22144, 0], a=1, v=Speed000, r=Zone000)
  movel(p[0.75428, -0.12397, -0.02, 2.22144, 2.22144, 0], a=1, v=Speed000, r=Zone000)
  movel(p[0.75395, -0.12397, -0.02, 2.22144, 2.22144, 0], a=1, v=Speed000, r=Zone000)
  movel(p[0.75361, -0.12397, -0.02, 2.22144, 2.22144, 0], a=1, v=Speed000, r=Zone000)
  movel(p[0.75328, -0.12397, -0.02, 2.22144, 2.22144, 0], a=1, v=Speed000, r=Zone000)
  movel(p[0.75295, -0.12397, -0.02, 2.22144, 2.22144, 0], a=1, v=Speed000, r=Zone000)
  movel(p[0.75261, -0.12397, -0.02, 2.22144, 2.22144, 0], a=1, v=Speed000, r=Zone000)
  movel(p[0.75228, -0.12397, -0.02, 2.22144, 2.22144, 0], a=1, v=Speed000, r=Zone000)
  movel(p[0.75195, -0.12397, -0.02, 2.22144, 2.22144, 0], a=1, v=Speed000, r=Zone000)
  movel(p[0.75161, -0.12397, -0.02, 2.22144, 2.22144, 0], a=1, v=Speed000, r=Zone000)
  movel(p[0.75128, -0.12397, -0.02, 2.22144, 2.22144, 0], a=1, v=Speed000, r=Zone000)
  movel(p[0.75128, -0.12364, -0.02, 2.22144, 2.22144, 0], a=1, v=Speed000, r=Zone000)
  movel(p[0.75161, -0.12364, -0.02, 2.22144, 2.22144, 0], a=1, v=Speed000, r=Zone000)
  movel(p[0.75195, -0.12364, -0.02, 2.22144, 2.22144, 0], a=1, v=Speed000, r=Zone000)
  movel(p[0.75228, -0.12364, -0.02, 2.22144, 2.22144, 0], a=1, v=Speed000, r=Zone000)
  movel(p[0.75228, -0.12331, -0.02, 2.22144, 2.22144, 0], a=1, v=Speed000, r=Zone000)
  movel(p[0.75261, -0.12364, -0.02, 2.22144, 2.22144, 0], a=1, v=Speed000, r=Zone000)
  movel(p[0.75261, -0.12331, -0.02, 2.22144, 2.22144, 0], a=1, v=Speed000, r=Zone000)
  movel(p[0.75295, -0.12364, -0.02, 2.22144, 2.22144, 0], a=1, v=Speed000, r=Zone000)
  movel(p[0.75328, -0.12364, -0.02, 2.22144, 2.22144, 0], a=1, v=Speed000, r=Zone000)
  movel(p[0.75361, -0.12364, -0.02, 2.22144, 2.22144, 0], a=1, v=Speed000, r=Zone000)
  movel(p[0.75395, -0.12364, -0.02, 2.22144, 2.22144, 0], a=1, v=Speed000, r=Zone000)
  movel(p[0.75428, -0.12364, -0.02, 2.22144, 2.22144, 0], a=1, v=Speed000, r=Zone000)
  movel(p[0.75461, -0.12364, -0.02, 2.22144, 2.22144, 0], a=1, v=Speed000, r=Zone000)
  movel(p[0.75495, -0.12364, -0.02, 2.22144, 2.22144, 0], a=1, v=Speed000, r=Zone000)
  movel(p[0.75495, -0.12331, -0.02, 2.22144, 2.22144, 0], a=1, v=Speed000, r=Zone000)
  movel(p[0.75528, -0.12364, -0.02, 2.22144, 2.22144, 0], a=1, v=Speed000, r=Zone000)
  movel(p[0.75528, -0.12331, -0.02, 2.22144, 2.22144, 0], a=1, v=Speed000, r=Zone000)
  movel(p[0.75561, -0.12331, -0.02, 2.22144, 2.22144, 0], a=1, v=Speed000, r=Zone000)
  movel(p[0.75595, -0.12364, -0.02, 2.22144, 2.22144, 0], a=1, v=Speed000, r=Zone000)
  movel(p[0.75595, -0.12331, -0.02, 2.22144, 2.22144, 0], a=1, v=Speed000, r=Zone000)
  movel(p[0.75628, -0.12364, -0.02, 2.22144, 2.22144, 0], a=1, v=Speed000, r=Zone000)
  movel(p[0.75628, -0.12331, -0.02, 2.22144, 2.22144, 0], a=1, v=Speed000, r=Zone000)
  movel(p[0.75661, -0.12364, -0.02, 2.22144, 2.22144, 0], a=1, v=Speed000, r=Zone000)
  movel(p[0.75661, -0.12331, -0.02, 2.22144, 2.22144, 0], a=1, v=Speed000, r=Zone000)
  movel(p[0.75695, -0.12364, -0.02, 2.22144, 2.22144, 0], a=1, v=Speed000, r=Zone000)
  movel(p[0.75695, -0.12331, -0.02, 2.22144, 2.22144, 0], a=1, v=Speed000, r=Zone000)
  movel(p[0.75728, -0.12364, -0.02, 2.22144, 2.22144, 0], a=1, v=Speed000, r=Zone000)
  movel(p[0.75728, -0.12331, -0.02, 2.22144, 2.22144, 0], a=1, v=Speed000, r=Zone000)
  movel(p[0.75761, -0.12364, -0.02, 2.22144, 2.22144, 0], a=1, v=Speed000, r=Zone000)
  movel(p[0.75761, -0.12331, -0.02, 2.22144, 2.22144, 0], a=1, v=Speed000, r=Zone000)
  movel(p[0.75795, -0.12364, -0.02, 2.22144, 2.22144, 0], a=1, v=Speed000, r=Zone000)
  movel(p[0.75795, -0.12331, -0.015, 2.22144, 2.22144, 0], a=1, v=Speed000, r=Zone000)
  movel(p[0.76495, -0.12364, -0.015, 2.22144, 2.22144, 0], a=1, v=Speed000, r=Zone000)
  movel(p[0.76495, -0.12331, -0.02, 2.22144, 2.22144, 0], a=1, v=Speed000, r=Zone000)
  movel(p[0.76528, -0.12364, -0.02, 2.22144, 2.22144, 0], a=1, v=Speed000, r=Zone000)
  movel(p[0.76528, -0.12331, -0.02, 2.22144, 2.22144, 0], a=1, v=Speed000, r=Zone000)
  movel(p[0.76561, -0.12364, -0.02, 2.22144, 2.22144, 0], a=1, v=Speed000, r=Zone000)
  movel(p[0.76561, -0.12331, -0.02, 2.22144, 2.22144, 0], a=1, v=Speed000, r=Zone000)
  movel(p[0.76595, -0.12364, -0.02, 2.22144, 2.22144, 0], a=1, v=Speed000, r=Zone000)
  movel(p[0.76595, -0.12331, -0.02, 2.22144, 2.22144, 0], a=1, v=Speed000, r=Zone000)
  movel(p[0.76628, -0.12364, -0.02, 2.22144, 2.22144, 0], a=1, v=Speed000, r=Zone000)
  movel(p[0.76628, -0.12331, -0.02, 2.22144, 2.22144, 0], a=1, v=Speed000, r=Zone000)
  movel(p[0.76661, -0.12364, -0.02, 2.22144, 2.22144, 0], a=1, v=Speed000, r=Zone000)
  movel(p[0.76661, -0.12331, -0.02, 2.22144, 2.22144, 0], a=1, v=Speed000, r=Zone000)
  movel(p[0.76695, -0.12364, -0.02, 2.22144, 2.22144, 0], a=1, v=Speed000, r=Zone000)
  movel(p[0.76695, -0.12331, -0.02, 2.22144, 2.22144, 0], a=1, v=Speed000, r=Zone000)
  movel(p[0.76728, -0.12364, -0.02, 2.22144, 2.22144, 0], a=1, v=Speed000, r=Zone000)
  movel(p[0.76728, -0.12331, -0.02, 2.22144, 2.22144, 0], a=1, v=Speed000, r=Zone000)
  movel(p[0.76761, -0.12331, -0.02, 2.22144, 2.22144, 0], a=1, v=Speed000, r=Zone000)
  movel(p[0.76895, -0.12364, -0.02, 2.22144, 2.22144, 0], a=1, v=Speed000, r=Zone000)
  movel(p[0.76928, -0.12364, -0.02, 2.22144, 2.22144, 0], a=1, v=Speed000, r=Zone000)
  movel(p[0.76961, -0.12364, -0.02, 2.22144, 2.22144, 0], a=1, v=Speed000, r=Zone000)
  movel(p[0.76995, -0.12364, -0.015, 2.22144, 2.22144, 0], a=1, v=Speed000, r=Zone000)
  movel(p[0.77261, -0.12364, -0.015, 2.22144, 2.22144, 0], a=1, v=Speed000, r=Zone000)
  movel(p[0.77295, -0.12364, -0.02, 2.22144, 2.22144, 0], a=1, v=Speed000, r=Zone000)
  movel(p[0.77328, -0.12364, -0.015, 2.22144, 2.22144, 0], a=1, v=Speed000, r=Zone000)
  movel(p[0.77695, -0.12264, -0.015, 2.22144, 2.22144, 0], a=1, v=Speed000, r=Zone000)
  movel(p[0.77595, -0.12264, -0.02, 2.22144, 2.22144, 0], a=1, v=Speed000, r=Zone000)
  movel(p[0.77561, -0.12297, -0.02, 2.22144, 2.22144, 0], a=1, v=Speed000, r=Zone000)
  movel(p[0.77495, -0.12297, -0.015, 2.22144, 2.22144, 0], a=1, v=Speed000, r=Zone000)
  movel(p[0.76761, -0.12297, -0.015, 2.22144, 2.22144, 0], a=1, v=Speed000, r=Zone000)
  movel(p[0.76761, -0.12264, -0.02, 2.22144, 2.22144, 0], a=1, v=Speed000, r=Zone000)
  movel(p[0.76728, -0.12297, -0.02, 2.22144, 2.22144, 0], a=1, v=Speed000, r=Zone000)
  movel(p[0.76728, -0.12264, -0.02, 2.22144, 2.22144, 0], a=1, v=Speed000, r=Zone000)
  movel(p[0.76695, -0.12297, -0.02, 2.22144, 2.22144, 0], a=1, v=Speed000, r=Zone000)
  movel(p[0.76695, -0.12264, -0.02, 2.22144, 2.22144, 0], a=1, v=Speed000, r=Zone000)
  movel(p[0.76661, -0.12297, -0.02, 2.22144, 2.22144, 0], a=1, v=Speed000, r=Zone000)
  movel(p[0.76661, -0.12264, -0.02, 2.22144, 2.22144, 0], a=1, v=Speed000, r=Zone000)
  movel(p[0.76628, -0.12297, -0.02, 2.22144, 2.22144, 0], a=1, v=Speed000, r=Zone000)
  movel(p[0.76628, -0.12264, -0.02, 2.22144, 2.22144, 0], a=1, v=Speed000, r=Zone000)
  movel(p[0.76595, -0.12297, -0.02, 2.22144, 2.22144, 0], a=1, v=Speed000, r=Zone000)
  movel(p[0.76595, -0.12264, -0.02, 2.22144, 2.22144, 0], a=1, v=Speed000, r=Zone000)
  movel(p[0.76561, -0.12297, -0.02, 2.22144, 2.22144, 0], a=1, v=Speed000, r=Zone000)
  movel(p[0.76561, -0.12264, -0.02, 2.22144, 2.22144, 0], a=1, v=Speed000, r=Zone000)
  movel(p[0.76528, -0.12297, -0.015, 2.22144, 2.22144, 0], a=1, v=Speed000, r=Zone000)
  movel(p[0.75795, -0.12297, -0.015, 2.22144, 2.22144, 0], a=1, v=Speed000, r=Zone000)
  movel(p[0.75795, -0.12264, -0.02, 2.22144, 2.22144, 0], a=1, v=Speed000, r=Zone000)
  movel(p[0.75761, -0.12297, -0.02, 2.22144, 2.22144, 0], a=1, v=Speed000, r=Zone000)
  movel(p[0.75761, -0.12264, -0.02, 2.22144, 2.22144, 0], a=1, v=Speed000, r=Zone000)
  movel(p[0.75728, -0.12297, -0.02, 2.22144, 2.22144, 0], a=1, v=Speed000, r=Zone000)
  movel(p[0.75728, -0.12264, -0.02, 2.22144, 2.22144, 0], a=1, v=Speed000, r=Zone000)
  movel(p[0.75695, -0.12297, -0.02, 2.22144, 2.22144, 0], a=1, v=Speed000, r=Zone000)
  movel(p[0.75695, -0.12264, -0.02, 2.22144, 2.22144, 0], a=1, v=Speed000, r=Zone000)
  movel(p[0.75661, -0.12297, -0.02, 2.22144, 2.22144, 0], a=1, v=Speed000, r=Zone000)
  movel(p[0.75661, -0.12264, -0.02, 2.22144, 2.22144, 0], a=1, v=Speed000, r=Zone000)
  movel(p[0.75628, -0.12297, -0.02, 2.22144, 2.22144, 0], a=1, v=Speed000, r=Zone000)
  movel(p[0.75628, -0.12264, -0.02, 2.22144, 2.22144, 0], a=1, v=Speed000, r=Zone000)
  movel(p[0.75595, -0.12297, -0.02, 2.22144, 2.22144, 0], a=1, v=Speed000, r=Zone000)
  movel(p[0.75595, -0.12264, -0.02, 2.22144, 2.22144, 0], a=1, v=Speed000, r=Zone000)
  movel(p[0.75561, -0.12297, -0.02, 2.22144, 2.22144, 0], a=1, v=Speed000, r=Zone000)
  movel(p[0.75528, -0.12297, -0.02, 2.22144, 2.22144, 0], a=1, v=Speed000, r=Zone000)
  movel(p[0.75428, -0.12264, -0.02, 2.22144, 2.22144, 0], a=1, v=Speed000, r=Zone000)
  movel(p[0.75395, -0.12264, -0.02, 2.22144, 2.22144, 0], a=1, v=Speed000, r=Zone000)
  movel(p[0.75361, -0.12264, -0.02, 2.22144, 2.22144, 0], a=1, v=Speed000, r=Zone000)
  movel(p[0.75328, -0.12297, -0.02, 2.22144, 2.22144, 0], a=1, v=Speed000, r=Zone000)
  movel(p[0.75328, -0.12264, -0.02, 2.22144, 2.22144, 0], a=1, v=Speed000, r=Zone000)
  movel(p[0.75295, -0.12297, -0.02, 2.22144, 2.22144, 0], a=1, v=Speed000, r=Zone000)
  movel(p[0.75295, -0.12264, -0.02, 2.22144, 2.22144, 0], a=1, v=Speed000, r=Zone000)
  movel(p[0.75261, -0.12297, -0.02, 2.22144, 2.22144, 0], a=1, v=Speed000, r=Zone000)
  movel(p[0.75261, -0.12264, -0.02, 2.22144, 2.22144, 0], a=1, v=Speed000, r=Zone000)
  movel(p[0.75228, -0.12297, -0.02, 2.22144, 2.22144, 0], a=1, v=Speed000, r=Zone000)
  movel(p[0.75228, -0.12264, -0.02, 2.22144, 2.22144, 0], a=1, v=Speed000, r=Zone000)
  movel(p[0.75195, -0.12297, -0.02, 2.22144, 2.22144, 0], a=1, v=Speed000, r=Zone000)
  movel(p[0.75195, -0.12264, -0.02, 2.22144, 2.22144, 0], a=1, v=Speed000, r=Zone000)
  movel(p[0.75161, -0.12297, -0.02, 2.22144, 2.22144, 0], a=1, v=Speed000, r=Zone000)
  movel(p[0.75228, -0.12231, -0.02, 2.22144, 2.22144, 0], a=1, v=Speed000, r=Zone000)
  movel(p[0.75261, -0.12231, -0.02, 2.22144, 2.22144, 0], a=1, v=Speed000, r=Zone000)
  movel(p[0.75261, -0.12197, -0.02, 2.22144, 2.22144, 0], a=1, v=Speed000, r=Zone000)
  movel(p[0.75295, -0.12231, -0.02, 2.22144, 2.22144, 0], a=1, v=Speed000, r=Zone000)
  movel(p[0.75295, -0.12197, -0.02, 2.22144, 2.22144, 0], a=1, v=Speed000, r=Zone000)
  movel(p[0.75328, -0.12231, -0.02, 2.22144, 2.22144, 0], a=1, v=Speed000, r=Zone000)
  movel(p[0.75328, -0.12197, -0.02, 2.22144, 2.22144, 0], a=1, v=Speed000, r=Zone000)
  movel(p[0.75361, -0.12231, -0.02, 2.22144, 2.22144, 0], a=1, v=Speed000, r=Zone000)
  movel(p[0.75361, -0.12197, -0.02, 2.22144, 2.22144, 0], a=1, v=Speed000, r=Zone000)
  movel(p[0.75395, -0.12231, -0.02, 2.22144, 2.22144, 0], a=1, v=Speed000, r=Zone000)
  movel(p[0.75395, -0.12197, -0.02, 2.22144, 2.22144, 0], a=1, v=Speed000, r=Zone000)
  movel(p[0.75428, -0.12231, -0.02, 2.22144, 2.22144, 0], a=1, v=Speed000, r=Zone000)
  movel(p[0.75428, -0.12197, -0.02, 2.22144, 2.22144, 0], a=1, v=Speed000, r=Zone000)
  movel(p[0.75461, -0.12231, -0.02, 2.22144, 2.22144, 0], a=1, v=Speed000, r=Zone000)
  movel(p[0.75461, -0.12197, -0.02, 2.22144, 2.22144, 0], a=1, v=Speed000, r=Zone000)
  movel(p[0.75495, -0.12231, -0.02, 2.22144, 2.22144, 0], a=1, v=Speed000, r=Zone000)
  movel(p[0.75495, -0.12197, -0.02, 2.22144, 2.22144, 0], a=1, v=Speed000, r=Zone000)
  movel(p[0.75528, -0.12197, -0.02, 2.22144, 2.22144, 0], a=1, v=Speed000, r=Zone000)
  movel(p[0.75595, -0.12231, -0.02, 2.22144, 2.22144, 0], a=1, v=Speed000, r=Zone000)
  movel(p[0.75595, -0.12197, -0.02, 2.22144, 2.22144, 0], a=1, v=Speed000, r=Zone000)
  movel(p[0.75628, -0.12231, -0.02, 2.22144, 2.22144, 0], a=1, v=Speed000, r=Zone000)
  movel(p[0.75628, -0.12197, -0.02, 2.22144, 2.22144, 0], a=1, v=Speed000, r=Zone000)
  movel(p[0.75661, -0.12231, -0.02, 2.22144, 2.22144, 0], a=1, v=Speed000, r=Zone000)
  movel(p[0.75661, -0.12197, -0.02, 2.22144, 2.22144, 0], a=1, v=Speed000, r=Zone000)
  movel(p[0.75695, -0.12231, -0.02, 2.22144, 2.22144, 0], a=1, v=Speed000, r=Zone000)
  movel(p[0.75695, -0.12197, -0.02, 2.22144, 2.22144, 0], a=1, v=Speed000, r=Zone000)
  movel(p[0.75728, -0.12231, -0.02, 2.22144, 2.22144, 0], a=1, v=Speed000, r=Zone000)
  movel(p[0.75728, -0.12197, -0.02, 2.22144, 2.22144, 0], a=1, v=Speed000, r=Zone000)
  movel(p[0.75761, -0.12231, -0.015, 2.22144, 2.22144, 0], a=1, v=Speed000, r=Zone000)
  movel(p[0.76461, -0.12231, -0.015, 2.22144, 2.22144, 0], a=1, v=Speed000, r=Zone000)
  movel(p[0.76461, -0.12197, -0.02, 2.22144, 2.22144, 0], a=1, v=Speed000, r=Zone000)
  movel(p[0.76495, -0.12231, -0.02, 2.22144, 2.22144, 0], a=1, v=Speed000, r=Zone000)
  movel(p[0.76495, -0.12197, -0.02, 2.22144, 2.22144, 0], a=1, v=Speed000, r=Zone000)
  movel(p[0.76528, -0.12231, -0.02, 2.22144, 2.22144, 0], a=1, v=Speed000, r=Zone000)
  movel(p[0.76528, -0.12197, -0.02, 2.22144, 2.22144, 0], a=1, v=Speed000, r=Zone000)
  movel(p[0.76561, -0.12231, -0.02, 2.22144, 2.22144, 0], a=1, v=Speed000, r=Zone000)
  movel(p[0.76561, -0.12197, -0.02, 2.22144, 2.22144, 0], a=1, v=Speed000, r=Zone000)
  movel(p[0.76595, -0.12231, -0.02, 2.22144, 2.22144, 0], a=1, v=Speed000, r=Zone000)
  movel(p[0.76595, -0.12197, -0.02, 2.22144, 2.22144, 0], a=1, v=Speed000, r=Zone000)
  movel(p[0.76628, -0.12231, -0.02, 2.22144, 2.22144, 0], a=1, v=Speed000, r=Zone000)
  movel(p[0.76628, -0.12197, -0.02, 2.22144, 2.22144, 0], a=1, v=Speed000, r=Zone000)
  movel(p[0.76661, -0.12231, -0.02, 2.22144, 2.22144, 0], a=1, v=Speed000, r=Zone000)
  movel(p[0.76661, -0.12197, -0.02, 2.22144, 2.22144, 0], a=1, v=Speed000, r=Zone000)
  movel(p[0.76695, -0.12231, -0.02, 2.22144, 2.22144, 0], a=1, v=Speed000, r=Zone000)
  movel(p[0.76695, -0.12197, -0.02, 2.22144, 2.22144, 0], a=1, v=Speed000, r=Zone000)
  movel(p[0.76728, -0.12231, -0.02, 2.22144, 2.22144, 0], a=1, v=Speed000, r=Zone000)
  movel(p[0.76728, -0.12197, -0.02, 2.22144, 2.22144, 0], a=1, v=Speed000, r=Zone000)
  movel(p[0.76761, -0.12231, -0.02, 2.22144, 2.22144, 0], a=1, v=Speed000, r=Zone000)
  movel(p[0.76761, -0.12197, -0.02, 2.22144, 2.22144, 0], a=1, v=Speed000, r=Zone000)
  movel(p[0.76795, -0.12231, -0.02, 2.22144, 2.22144, 0], a=1, v=Speed000, r=Zone000)
  movel(p[0.76795, -0.12197, -0.015, 2.22144, 2.22144, 0], a=1, v=Speed000, r=Zone000)
  movel(p[0.77528, -0.12197, -0.015, 2.22144, 2.22144, 0], a=1, v=Speed000, r=Zone000)
  movel(p[0.77561, -0.12197, -0.02, 2.22144, 2.22144, 0], a=1, v=Speed000, r=Zone000)
  movel(p[0.77595, -0.12197, -0.02, 2.22144, 2.22144, 0], a=1, v=Speed000, r=Zone000)
  movel(p[0.77628, -0.12197, -0.015, 2.22144, 2.22144, 0], a=1, v=Speed000, r=Zone000)
  movel(p[0.77895, -0.12131, -0.015, 2.22144, 2.22144, 0], a=1, v=Speed000, r=Zone000)
  movel(p[0.77861, -0.12131, -0.02, 2.22144, 2.22144, 0], a=1, v=Speed000, r=Zone000)
  movel(p[0.77828, -0.12131, -0.02, 2.22144, 2.22144, 0], a=1, v=Speed000, r=Zone000)
  movel(p[0.77795, -0.12131, -0.02, 2.22144, 2.22144, 0], a=1, v=Speed000, r=Zone000)
  movel(p[0.77761, -0.12164, -0.02, 2.22144, 2.22144, 0], a=1, v=Speed000, r=Zone000)
  movel(p[0.77761, -0.12131, -0.02, 2.22144, 2.22144, 0], a=1, v=Speed000, r=Zone000)
  movel(p[0.77728, -0.12164, -0.02, 2.22144, 2.22144, 0], a=1, v=Speed000, r=Zone000)
  movel(p[0.77728, -0.12131, -0.02, 2.22144, 2.22144, 0], a=1, v=Speed000, r=Zone000)
  movel(p[0.77695, -0.12164, -0.02, 2.22144, 2.22144, 0], a=1, v=Speed000, r=Zone000)
  movel(p[0.77695, -0.12131, -0.02, 2.22144, 2.22144, 0], a=1, v=Speed000, r=Zone000)
  movel(p[0.77661, -0.12164, -0.02, 2.22144, 2.22144, 0], a=1, v=Speed000, r=Zone000)
  movel(p[0.77661, -0.12131, -0.02, 2.22144, 2.22144, 0], a=1, v=Speed000, r=Zone000)
  movel(p[0.77628, -0.12164, -0.02, 2.22144, 2.22144, 0], a=1, v=Speed000, r=Zone000)
  movel(p[0.77628, -0.12131, -0.02, 2.22144, 2.22144, 0], a=1, v=Speed000, r=Zone000)
  movel(p[0.77595, -0.12164, -0.02, 2.22144, 2.22144, 0], a=1, v=Speed000, r=Zone000)
  movel(p[0.77595, -0.12131, -0.02, 2.22144, 2.22144, 0], a=1, v=Speed000, r=Zone000)
  movel(p[0.77561, -0.12164, -0.02, 2.22144, 2.22144, 0], a=1, v=Speed000, r=Zone000)
  movel(p[0.77561, -0.12131, -0.02, 2.22144, 2.22144, 0], a=1, v=Speed000, r=Zone000)
  movel(p[0.77528, -0.12164, -0.02, 2.22144, 2.22144, 0], a=1, v=Speed000, r=Zone000)
  movel(p[0.77528, -0.12131, -0.02, 2.22144, 2.22144, 0], a=1, v=Speed000, r=Zone000)
  movel(p[0.77495, -0.12164, -0.02, 2.22144, 2.22144, 0], a=1, v=Speed000, r=Zone000)
  movel(p[0.77495, -0.12131, -0.02, 2.22144, 2.22144, 0], a=1, v=Speed000, r=Zone000)
  movel(p[0.77461, -0.12164, -0.02, 2.22144, 2.22144, 0], a=1, v=Speed000, r=Zone000)
  movel(p[0.77461, -0.12131, -0.02, 2.22144, 2.22144, 0], a=1, v=Speed000, r=Zone000)
  movel(p[0.77428, -0.12164, -0.02, 2.22144, 2.22144, 0], a=1, v=Speed000, r=Zone000)
  movel(p[0.77428, -0.12131, -0.02, 2.22144, 2.22144, 0], a=1, v=Speed000, r=Zone000)
  movel(p[0.77395, -0.12164, -0.02, 2.22144, 2.22144, 0], a=1, v=Speed000, r=Zone000)
  movel(p[0.77395, -0.12131, -0.02, 2.22144, 2.22144, 0], a=1, v=Speed000, r=Zone000)
  movel(p[0.77361, -0.12164, -0.02, 2.22144, 2.22144, 0], a=1, v=Speed000, r=Zone000)
  movel(p[0.77361, -0.12131, -0.02, 2.22144, 2.22144, 0], a=1, v=Speed000, r=Zone000)
  movel(p[0.77328, -0.12131, -0.02, 2.22144, 2.22144, 0], a=1, v=Speed000, r=Zone000)
  movel(p[0.77295, -0.12131, -0.02, 2.22144, 2.22144, 0], a=1, v=Speed000, r=Zone000)
  movel(p[0.77261, -0.12131, -0.015, 2.22144, 2.22144, 0], a=1, v=Speed000, r=Zone000)
  movel(p[0.76795, -0.12164, -0.015, 2.22144, 2.22144, 0], a=1, v=Speed000, r=Zone000)
  movel(p[0.76761, -0.12164, -0.02, 2.22144, 2.22144, 0], a=1, v=Speed000, r=Zone000)
  movel(p[0.76761, -0.12131, -0.02, 2.22144, 2.22144, 0], a=1, v=Speed000, r=Zone000)
  movel(p[0.76728, -0.12164, -0.02, 2.22144, 2.22144, 0], a=1, v=Speed000, r=Zone000)
  movel(p[0.76728, -0.12131, -0.02, 2.22144, 2.22144, 0], a=1, v=Speed000, r=Zone000)
  movel(p[0.76695, -0.12164, -0.02, 2.22144, 2.22144, 0], a=1, v=Speed000, r=Zone000)
  movel(p[0.76695, -0.12131, -0.02, 2.22144, 2.22144, 0], a=1, v=Speed000, r=Zone000)
  movel(p[0.76661, -0.12164, -0.02, 2.22144, 2.22144, 0], a=1, v=Speed000, r=Zone000)
  movel(p[0.76661, -0.12131, -0.02, 2.22144, 2.22144, 0], a=1, v=Speed000, r=Zone000)
  movel(p[0.76628, -0.12164, -0.02, 2.22144, 2.22144, 0], a=1, v=Speed000, r=Zone000)
  movel(p[0.76628, -0.12131, -0.02, 2.22144, 2.22144, 0], a=1, v=Speed000, r=Zone000)
  movel(p[0.76595, -0.12164, -0.02, 2.22144, 2.22144, 0], a=1, v=Speed000, r=Zone000)
  movel(p[0.76595, -0.12131, -0.02, 2.22144, 2.22144, 0], a=1, v=Speed000, r=Zone000)
  movel(p[0.76561, -0.12164, -0.02, 2.22144, 2.22144, 0], a=1, v=Speed000, r=Zone000)
  movel(p[0.76561, -0.12131, -0.02, 2.22144, 2.22144, 0], a=1, v=Speed000, r=Zone000)
  movel(p[0.76528, -0.12164, -0.02, 2.22144, 2.22144, 0], a=1, v=Speed000, r=Zone000)
  movel(p[0.76528, -0.12131, -0.02, 2.22144, 2.22144, 0], a=1, v=Speed000, r=Zone000)
  movel(p[0.76495, -0.12164, -0.02, 2.22144, 2.22144, 0], a=1, v=Speed000, r=Zone000)
  movel(p[0.76495, -0.12131, -0.02, 2.22144, 2.22144, 0], a=1, v=Speed000, r=Zone000)
  movel(p[0.76461, -0.12164, -0.02, 2.22144, 2.22144, 0], a=1, v=Speed000, r=Zone000)
  movel(p[0.76428, -0.12131, -0.015, 2.22144, 2.22144, 0], a=1, v=Speed000, r=Zone000)
  movel(p[0.75728, -0.12164, -0.015, 2.22144, 2.22144, 0], a=1, v=Speed000, r=Zone000)
  movel(p[0.75728, -0.12131, -0.02, 2.22144, 2.22144, 0], a=1, v=Speed000, r=Zone000)
  movel(p[0.75695, -0.12164, -0.02, 2.22144, 2.22144, 0], a=1, v=Speed000, r=Zone000)
  movel(p[0.75695, -0.12131, -0.02, 2.22144, 2.22144, 0], a=1, v=Speed000, r=Zone000)
  movel(p[0.75661, -0.12164, -0.02, 2.22144, 2.22144, 0], a=1, v=Speed000, r=Zone000)
  movel(p[0.75661, -0.12131, -0.02, 2.22144, 2.22144, 0], a=1, v=Speed000, r=Zone000)
  movel(p[0.75628, -0.12164, -0.02, 2.22144, 2.22144, 0], a=1, v=Speed000, r=Zone000)
  movel(p[0.75628, -0.12131, -0.02, 2.22144, 2.22144, 0], a=1, v=Speed000, r=Zone000)
  movel(p[0.75595, -0.12131, -0.02, 2.22144, 2.22144, 0], a=1, v=Speed000, r=Zone000)
  movel(p[0.75561, -0.12164, -0.02, 2.22144, 2.22144, 0], a=1, v=Speed000, r=Zone000)
  movel(p[0.75561, -0.12131, -0.02, 2.22144, 2.22144, 0], a=1, v=Speed000, r=Zone000)
  movel(p[0.75528, -0.12164, -0.02, 2.22144, 2.22144, 0], a=1, v=Speed000, r=Zone000)
  movel(p[0.75528, -0.12131, -0.02, 2.22144, 2.22144, 0], a=1, v=Speed000, r=Zone000)
  movel(p[0.75495, -0.12164, -0.02, 2.22144, 2.22144, 0], a=1, v=Speed000, r=Zone000)
  movel(p[0.75495, -0.12131, -0.02, 2.22144, 2.22144, 0], a=1, v=Speed000, r=Zone000)
  movel(p[0.75461, -0.12164, -0.02, 2.22144, 2.22144, 0], a=1, v=Speed000, r=Zone000)
  movel(p[0.75461, -0.12131, -0.02, 2.22144, 2.22144, 0], a=1, v=Speed000, r=Zone000)
  movel(p[0.75428, -0.12164, -0.02, 2.22144, 2.22144, 0], a=1, v=Speed000, r=Zone000)
  movel(p[0.75428, -0.12131, -0.02, 2.22144, 2.22144, 0], a=1, v=Speed000, r=Zone000)
  movel(p[0.75395, -0.12164, -0.02, 2.22144, 2.22144, 0], a=1, v=Speed000, r=Zone000)
  movel(p[0.75395, -0.12131, -0.02, 2.22144, 2.22144, 0], a=1, v=Speed000, r=Zone000)
  movel(p[0.75361, -0.12164, -0.02, 2.22144, 2.22144, 0], a=1, v=Speed000, r=Zone000)
  movel(p[0.75328, -0.12164, -0.02, 2.22144, 2.22144, 0], a=1, v=Speed000, r=Zone000)
  movel(p[0.75328, -0.12131, -0.02, 2.22144, 2.22144, 0], a=1, v=Speed000, r=Zone000)
  movel(p[0.75261, -0.12097, -0.02, 2.22144, 2.22144, 0], a=1, v=Speed000, r=Zone000)
  movel(p[0.75295, -0.12097, -0.02, 2.22144, 2.22144, 0], a=1, v=Speed000, r=Zone000)
  movel(p[0.75328, -0.12097, -0.02, 2.22144, 2.22144, 0], a=1, v=Speed000, r=Zone000)
  movel(p[0.75361, -0.12097, -0.02, 2.22144, 2.22144, 0], a=1, v=Speed000, r=Zone000)
  movel(p[0.75428, -0.12097, -0.02, 2.22144, 2.22144, 0], a=1, v=Speed000, r=Zone000)
  movel(p[0.75495, -0.12097, -0.02, 2.22144, 2.22144, 0], a=1, v=Speed000, r=Zone000)
  movel(p[0.75528, -0.12097, -0.02, 2.22144, 2.22144, 0], a=1, v=Speed000, r=Zone000)
  movel(p[0.75561, -0.12097, -0.02, 2.22144, 2.22144, 0], a=1, v=Speed000, r=Zone000)
  movel(p[0.75595, -0.12097, -0.02, 2.22144, 2.22144, 0], a=1, v=Speed000, r=Zone000)
  movel(p[0.75628, -0.12097, -0.02, 2.22144, 2.22144, 0], a=1, v=Speed000, r=Zone000)
  movel(p[0.75661, -0.12097, -0.02, 2.22144, 2.22144, 0], a=1, v=Speed000, r=Zone000)
  movel(p[0.75695, -0.12097, -0.02, 2.22144, 2.22144, 0], a=1, v=Speed000, r=Zone000)
  movel(p[0.75728, -0.12097, -0.015, 2.22144, 2.22144, 0], a=1, v=Speed000, r=Zone000)
  movel(p[0.76428, -0.12097, -0.015, 2.22144, 2.22144, 0], a=1, v=Speed000, r=Zone000)
  movel(p[0.76528, -0.12097, -0.02, 2.22144, 2.22144, 0], a=1, v=Speed000, r=Zone000)
  movel(p[0.76561, -0.12097, -0.02, 2.22144, 2.22144, 0], a=1, v=Speed000, r=Zone000)
  movel(p[0.76595, -0.12097, -0.02, 2.22144, 2.22144, 0], a=1, v=Speed000, r=Zone000)
  movel(p[0.76628, -0.12097, -0.02, 2.22144, 2.22144, 0], a=1, v=Speed000, r=Zone000)
  movel(p[0.76661, -0.12097, -0.02, 2.22144, 2.22144, 0], a=1, v=Speed000, r=Zone000)
  movel(p[0.76695, -0.12097, -0.02, 2.22144, 2.22144, 0], a=1, v=Speed000, r=Zone000)
  movel(p[0.76728, -0.12097, -0.015, 2.22144, 2.22144, 0], a=1, v=Speed000, r=Zone000)
  movel(p[0.76928, -0.12097, -0.015, 2.22144, 2.22144, 0], a=1, v=Speed000, r=Zone000)
  movel(p[0.77195, -0.12097, -0.015, 2.22144, 2.22144, 0], a=1, v=Speed000, r=Zone000)
  movel(p[0.77228, -0.12097, -0.02, 2.22144, 2.22144, 0], a=1, v=Speed000, r=Zone000)
  movel(p[0.77261, -0.12097, -0.02, 2.22144, 2.22144, 0], a=1, v=Speed000, r=Zone000)
  movel(p[0.77295, -0.12097, -0.02, 2.22144, 2.22144, 0], a=1, v=Speed000, r=Zone000)
  movel(p[0.77328, -0.12097, -0.02, 2.22144, 2.22144, 0], a=1, v=Speed000, r=Zone000)
  movel(p[0.77361, -0.12097, -0.02, 2.22144, 2.22144, 0], a=1, v=Speed000, r=Zone000)
  movel(p[0.77395, -0.12097, -0.02, 2.22144, 2.22144, 0], a=1, v=Speed000, r=Zone000)
  movel(p[0.77428, -0.12097, -0.02, 2.22144, 2.22144, 0], a=1, v=Speed000, r=Zone000)
  movel(p[0.77461, -0.12097, -0.02, 2.22144, 2.22144, 0], a=1, v=Speed000, r=Zone000)
  movel(p[0.77495, -0.12097, -0.02, 2.22144, 2.22144, 0], a=1, v=Speed000, r=Zone000)
  movel(p[0.77528, -0.12097, -0.02, 2.22144, 2.22144, 0], a=1, v=Speed000, r=Zone000)
  movel(p[0.77561, -0.12097, -0.02, 2.22144, 2.22144, 0], a=1, v=Speed000, r=Zone000)
  movel(p[0.77595, -0.12097, -0.02, 2.22144, 2.22144, 0], a=1, v=Speed000, r=Zone000)
  movel(p[0.77628, -0.12097, -0.02, 2.22144, 2.22144, 0], a=1, v=Speed000, r=Zone000)
  movel(p[0.77661, -0.12097, -0.02, 2.22144, 2.22144, 0], a=1, v=Speed000, r=Zone000)
  movel(p[0.77695, -0.12097, -0.02, 2.22144, 2.22144, 0], a=1, v=Speed000, r=Zone000)
  movel(p[0.77728, -0.12097, -0.02, 2.22144, 2.22144, 0], a=1, v=Speed000, r=Zone000)
  movel(p[0.77761, -0.12097, -0.02, 2.22144, 2.22144, 0], a=1, v=Speed000, r=Zone000)
  movel(p[0.77795, -0.12097, -0.02, 2.22144, 2.22144, 0], a=1, v=Speed000, r=Zone000)
  movel(p[0.77828, -0.12097, -0.02, 2.22144, 2.22144, 0], a=1, v=Speed000, r=Zone000)
  movel(p[0.77861, -0.12097, -0.02, 2.22144, 2.22144, 0], a=1, v=Speed000, r=Zone000)
  movel(p[0.77895, -0.12097, -0.02, 2.22144, 2.22144, 0], a=1, v=Speed000, r=Zone000)
  movel(p[0.77928, -0.12097, -0.02, 2.22144, 2.22144, 0], a=1, v=Speed000, r=Zone000)
  movel(p[0.77961, -0.12097, -0.015, 2.22144, 2.22144, 0], a=1, v=Speed000, r=Zone000)
  movel(p[0.78128, -0.12031, -0.015, 2.22144, 2.22144, 0], a=1, v=Speed000, r=Zone000)
  movel(p[0.78095, -0.12031, -0.02, 2.22144, 2.22144, 0], a=1, v=Speed000, r=Zone000)
  movel(p[0.78061, -0.12064, -0.02, 2.22144, 2.22144, 0], a=1, v=Speed000, r=Zone000)
  movel(p[0.78061, -0.12031, -0.02, 2.22144, 2.22144, 0], a=1, v=Speed000, r=Zone000)
  movel(p[0.78028, -0.12064, -0.02, 2.22144, 2.22144, 0], a=1, v=Speed000, r=Zone000)
  movel(p[0.78028, -0.12031, -0.02, 2.22144, 2.22144, 0], a=1, v=Speed000, r=Zone000)
  movel(p[0.77995, -0.12064, -0.02, 2.22144, 2.22144, 0], a=1, v=Speed000, r=Zone000)
  movel(p[0.77995, -0.12031, -0.02, 2.22144, 2.22144, 0], a=1, v=Speed000, r=Zone000)
  movel(p[0.77961, -0.12064, -0.02, 2.22144, 2.22144, 0], a=1, v=Speed000, r=Zone000)
  movel(p[0.77961, -0.12031, -0.02, 2.22144, 2.22144, 0], a=1, v=Speed000, r=Zone000)
  movel(p[0.77928, -0.12064, -0.02, 2.22144, 2.22144, 0], a=1, v=Speed000, r=Zone000)
  movel(p[0.77928, -0.12031, -0.02, 2.22144, 2.22144, 0], a=1, v=Speed000, r=Zone000)
  movel(p[0.77895, -0.12064, -0.02, 2.22144, 2.22144, 0], a=1, v=Speed000, r=Zone000)
  movel(p[0.77895, -0.12031, -0.02, 2.22144, 2.22144, 0], a=1, v=Speed000, r=Zone000)
  movel(p[0.77861, -0.12064, -0.02, 2.22144, 2.22144, 0], a=1, v=Speed000, r=Zone000)
  movel(p[0.77861, -0.12031, -0.02, 2.22144, 2.22144, 0], a=1, v=Speed000, r=Zone000)
  movel(p[0.77828, -0.12064, -0.02, 2.22144, 2.22144, 0], a=1, v=Speed000, r=Zone000)
  movel(p[0.77828, -0.12031, -0.02, 2.22144, 2.22144, 0], a=1, v=Speed000, r=Zone000)
  movel(p[0.77795, -0.12064, -0.02, 2.22144, 2.22144, 0], a=1, v=Speed000, r=Zone000)
  movel(p[0.77795, -0.12031, -0.02, 2.22144, 2.22144, 0], a=1, v=Speed000, r=Zone000)
  movel(p[0.77761, -0.12064, -0.02, 2.22144, 2.22144, 0], a=1, v=Speed000, r=Zone000)
  movel(p[0.77761, -0.12031, -0.02, 2.22144, 2.22144, 0], a=1, v=Speed000, r=Zone000)
  movel(p[0.77728, -0.12064, -0.02, 2.22144, 2.22144, 0], a=1, v=Speed000, r=Zone000)
  movel(p[0.77728, -0.12031, -0.02, 2.22144, 2.22144, 0], a=1, v=Speed000, r=Zone000)
  movel(p[0.77695, -0.12064, -0.02, 2.22144, 2.22144, 0], a=1, v=Speed000, r=Zone000)
  movel(p[0.77695, -0.12031, -0.02, 2.22144, 2.22144, 0], a=1, v=Speed000, r=Zone000)
  movel(p[0.77661, -0.12064, -0.02, 2.22144, 2.22144, 0], a=1, v=Speed000, r=Zone000)
  movel(p[0.77661, -0.12031, -0.02, 2.22144, 2.22144, 0], a=1, v=Speed000, r=Zone000)
  movel(p[0.77628, -0.12064, -0.02, 2.22144, 2.22144, 0], a=1, v=Speed000, r=Zone000)
  movel(p[0.77628, -0.12031, -0.02, 2.22144, 2.22144, 0], a=1, v=Speed000, r=Zone000)
  movel(p[0.77595, -0.12064, -0.02, 2.22144, 2.22144, 0], a=1, v=Speed000, r=Zone000)
  movel(p[0.77595, -0.12031, -0.02, 2.22144, 2.22144, 0], a=1, v=Speed000, r=Zone000)
  movel(p[0.77561, -0.12064, -0.02, 2.22144, 2.22144, 0], a=1, v=Speed000, r=Zone000)
  movel(p[0.77561, -0.12031, -0.02, 2.22144, 2.22144, 0], a=1, v=Speed000, r=Zone000)
  movel(p[0.77528, -0.12064, -0.02, 2.22144, 2.22144, 0], a=1, v=Speed000, r=Zone000)
  movel(p[0.77528, -0.12031, -0.02, 2.22144, 2.22144, 0], a=1, v=Speed000, r=Zone000)
  movel(p[0.77495, -0.12064, -0.02, 2.22144, 2.22144, 0], a=1, v=Speed000, r=Zone000)
  movel(p[0.77495, -0.12031, -0.02, 2.22144, 2.22144, 0], a=1, v=Speed000, r=Zone000)
  movel(p[0.77461, -0.12064, -0.02, 2.22144, 2.22144, 0], a=1, v=Speed000, r=Zone000)
  movel(p[0.77461, -0.12031, -0.02, 2.22144, 2.22144, 0], a=1, v=Speed000, r=Zone000)
  movel(p[0.77428, -0.12064, -0.02, 2.22144, 2.22144, 0], a=1, v=Speed000, r=Zone000)
  movel(p[0.77428, -0.12031, -0.02, 2.22144, 2.22144, 0], a=1, v=Speed000, r=Zone000)
  movel(p[0.77395, -0.12064, -0.02, 2.22144, 2.22144, 0], a=1, v=Speed000, r=Zone000)
  movel(p[0.77395, -0.12031, -0.02, 2.22144, 2.22144, 0], a=1, v=Speed000, r=Zone000)
  movel(p[0.77361, -0.12064, -0.02, 2.22144, 2.22144, 0], a=1, v=Speed000, r=Zone000)
  movel(p[0.77361, -0.12031, -0.02, 2.22144, 2.22144, 0], a=1, v=Speed000, r=Zone000)
  movel(p[0.77328, -0.12064, -0.02, 2.22144, 2.22144, 0], a=1, v=Speed000, r=Zone000)
  movel(p[0.77328, -0.12031, -0.02, 2.22144, 2.22144, 0], a=1, v=Speed000, r=Zone000)
  movel(p[0.77295, -0.12064, -0.02, 2.22144, 2.22144, 0], a=1, v=Speed000, r=Zone000)
  movel(p[0.77295, -0.12031, -0.02, 2.22144, 2.22144, 0], a=1, v=Speed000, r=Zone000)
  movel(p[0.77261, -0.12064, -0.02, 2.22144, 2.22144, 0], a=1, v=Speed000, r=Zone000)
  movel(p[0.77261, -0.12031, -0.02, 2.22144, 2.22144, 0], a=1, v=Speed000, r=Zone000)
  movel(p[0.77228, -0.12064, -0.02, 2.22144, 2.22144, 0], a=1, v=Speed000, r=Zone000)
  movel(p[0.77228, -0.12031, -0.02, 2.22144, 2.22144, 0], a=1, v=Speed000, r=Zone000)
  movel(p[0.77195, -0.12064, -0.02, 2.22144, 2.22144, 0], a=1, v=Speed000, r=Zone000)
  movel(p[0.77195, -0.12031, -0.02, 2.22144, 2.22144, 0], a=1, v=Speed000, r=Zone000)
  movel(p[0.77161, -0.12031, -0.015, 2.22144, 2.22144, 0], a=1, v=Speed000, r=Zone000)
  movel(p[0.76928, -0.12064, -0.015, 2.22144, 2.22144, 0], a=1, v=Speed000, r=Zone000)
  movel(p[0.76928, -0.12031, -0.02, 2.22144, 2.22144, 0], a=1, v=Speed000, r=Zone000)
  movel(p[0.76895, -0.12031, -0.02, 2.22144, 2.22144, 0], a=1, v=Speed000, r=Zone000)
  movel(p[0.76795, -0.12031, -0.02, 2.22144, 2.22144, 0], a=1, v=Speed000, r=Zone000)
  movel(p[0.76761, -0.12064, -0.02, 2.22144, 2.22144, 0], a=1, v=Speed000, r=Zone000)
  movel(p[0.76761, -0.12031, -0.02, 2.22144, 2.22144, 0], a=1, v=Speed000, r=Zone000)
  movel(p[0.76728, -0.12064, -0.02, 2.22144, 2.22144, 0], a=1, v=Speed000, r=Zone000)
  movel(p[0.76728, -0.12031, -0.02, 2.22144, 2.22144, 0], a=1, v=Speed000, r=Zone000)
  movel(p[0.76695, -0.12064, -0.02, 2.22144, 2.22144, 0], a=1, v=Speed000, r=Zone000)
  movel(p[0.76695, -0.12031, -0.02, 2.22144, 2.22144, 0], a=1, v=Speed000, r=Zone000)
  movel(p[0.76661, -0.12031, -0.02, 2.22144, 2.22144, 0], a=1, v=Speed000, r=Zone000)
  movel(p[0.76628, -0.12064, -0.02, 2.22144, 2.22144, 0], a=1, v=Speed000, r=Zone000)
  movel(p[0.76628, -0.12031, -0.02, 2.22144, 2.22144, 0], a=1, v=Speed000, r=Zone000)
  movel(p[0.76595, -0.12064, -0.02, 2.22144, 2.22144, 0], a=1, v=Speed000, r=Zone000)
  movel(p[0.76595, -0.12031, -0.02, 2.22144, 2.22144, 0], a=1, v=Speed000, r=Zone000)
  movel(p[0.76561, -0.12064, -0.02, 2.22144, 2.22144, 0], a=1, v=Speed000, r=Zone000)
  movel(p[0.76561, -0.12031, -0.02, 2.22144, 2.22144, 0], a=1, v=Speed000, r=Zone000)
  movel(p[0.76528, -0.12064, -0.02, 2.22144, 2.22144, 0], a=1, v=Speed000, r=Zone000)
  movel(p[0.76528, -0.12031, -0.02, 2.22144, 2.22144, 0], a=1, v=Speed000, r=Zone000)
  movel(p[0.76495, -0.12064, -0.02, 2.22144, 2.22144, 0], a=1, v=Speed000, r=Zone000)
  movel(p[0.76495, -0.12031, -0.02, 2.22144, 2.22144, 0], a=1, v=Speed000, r=Zone000)
  movel(p[0.76461, -0.12064, -0.02, 2.22144, 2.22144, 0], a=1, v=Speed000, r=Zone000)
  movel(p[0.76428, -0.12064, -0.015, 2.22144, 2.22144, 0], a=1, v=Speed000, r=Zone000)
  movel(p[0.75728, -0.12031, -0.015, 2.22144, 2.22144, 0], a=1, v=Speed000, r=Zone000)
  movel(p[0.75695, -0.12064, -0.02, 2.22144, 2.22144, 0], a=1, v=Speed000, r=Zone000)
  movel(p[0.75695, -0.12031, -0.02, 2.22144, 2.22144, 0], a=1, v=Speed000, r=Zone000)
  movel(p[0.75661, -0.12064, -0.02, 2.22144, 2.22144, 0], a=1, v=Speed000, r=Zone000)
  movel(p[0.75661, -0.12031, -0.02, 2.22144, 2.22144, 0], a=1, v=Speed000, r=Zone000)
  movel(p[0.75628, -0.12064, -0.02, 2.22144, 2.22144, 0], a=1, v=Speed000, r=Zone000)
  movel(p[0.75628, -0.12031, -0.02, 2.22144, 2.22144, 0], a=1, v=Speed000, r=Zone000)
  movel(p[0.75595, -0.12064, -0.02, 2.22144, 2.22144, 0], a=1, v=Speed000, r=Zone000)
  movel(p[0.75595, -0.12031, -0.02, 2.22144, 2.22144, 0], a=1, v=Speed000, r=Zone000)
  movel(p[0.75561, -0.12064, -0.02, 2.22144, 2.22144, 0], a=1, v=Speed000, r=Zone000)
  movel(p[0.75561, -0.12031, -0.02, 2.22144, 2.22144, 0], a=1, v=Speed000, r=Zone000)
  movel(p[0.75528, -0.12064, -0.02, 2.22144, 2.22144, 0], a=1, v=Speed000, r=Zone000)
  movel(p[0.75528, -0.12031, -0.02, 2.22144, 2.22144, 0], a=1, v=Speed000, r=Zone000)
  movel(p[0.75495, -0.12064, -0.02, 2.22144, 2.22144, 0], a=1, v=Speed000, r=Zone000)
  movel(p[0.75461, -0.12031, -0.02, 2.22144, 2.22144, 0], a=1, v=Speed000, r=Zone000)
  movel(p[0.75428, -0.12064, -0.02, 2.22144, 2.22144, 0], a=1, v=Speed000, r=Zone000)
  movel(p[0.75428, -0.12031, -0.02, 2.22144, 2.22144, 0], a=1, v=Speed000, r=Zone000)
  movel(p[0.75395, -0.12064, -0.02, 2.22144, 2.22144, 0], a=1, v=Speed000, r=Zone000)
  movel(p[0.75395, -0.12031, -0.02, 2.22144, 2.22144, 0], a=1, v=Speed000, r=Zone000)
  movel(p[0.75361, -0.12064, -0.02, 2.22144, 2.22144, 0], a=1, v=Speed000, r=Zone000)
  movel(p[0.75361, -0.12031, -0.02, 2.22144, 2.22144, 0], a=1, v=Speed000, r=Zone000)
  movel(p[0.75328, -0.12064, -0.02, 2.22144, 2.22144, 0], a=1, v=Speed000, r=Zone000)
  movel(p[0.75328, -0.12031, -0.02, 2.22144, 2.22144, 0], a=1, v=Speed000, r=Zone000)
  movel(p[0.75295, -0.12064, -0.02, 2.22144, 2.22144, 0], a=1, v=Speed000, r=Zone000)
  movel(p[0.75295, -0.12031, -0.02, 2.22144, 2.22144, 0], a=1, v=Speed000, r=Zone000)
  movel(p[0.75261, -0.12064, -0.02, 2.22144, 2.22144, 0], a=1, v=Speed000, r=Zone000)
  movel(p[0.75261, -0.12031, -0.02, 2.22144, 2.22144, 0], a=1, v=Speed000, r=Zone000)
  movel(p[0.75228, -0.12064, -0.02, 2.22144, 2.22144, 0], a=1, v=Speed000, r=Zone000)
  movel(p[0.75228, -0.12031, -0.02, 2.22144, 2.22144, 0], a=1, v=Speed000, r=Zone000)
  movel(p[0.75195, -0.12031, -0.02, 2.22144, 2.22144, 0], a=1, v=Speed000, r=Zone000)
  movel(p[0.75128, -0.11964, -0.02, 2.22144, 2.22144, 0], a=1, v=Speed000, r=Zone000)
  movel(p[0.75161, -0.11997, -0.02, 2.22144, 2.22144, 0], a=1, v=Speed000, r=Zone000)
  movel(p[0.75161, -0.11964, -0.02, 2.22144, 2.22144, 0], a=1, v=Speed000, r=Zone000)
  movel(p[0.75195, -0.11997, -0.02, 2.22144, 2.22144, 0], a=1, v=Speed000, r=Zone000)
  movel(p[0.75195, -0.11964, -0.02, 2.22144, 2.22144, 0], a=1, v=Speed000, r=Zone000)
  movel(p[0.75228, -0.11997, -0.02, 2.22144, 2.22144, 0], a=1, v=Speed000, r=Zone000)
  movel(p[0.75228, -0.11964, -0.02, 2.22144, 2.22144, 0], a=1, v=Speed000, r=Zone000)
  movel(p[0.75261, -0.11997, -0.02, 2.22144, 2.22144, 0], a=1, v=Speed000, r=Zone000)
  movel(p[0.75261, -0.11964, -0.02, 2.22144, 2.22144, 0], a=1, v=Speed000, r=Zone000)
  movel(p[0.75295, -0.11997, -0.02, 2.22144, 2.22144, 0], a=1, v=Speed000, r=Zone000)
  movel(p[0.75295, -0.11964, -0.02, 2.22144, 2.22144, 0], a=1, v=Speed000, r=Zone000)
  movel(p[0.75328, -0.11997, -0.02, 2.22144, 2.22144, 0], a=1, v=Speed000, r=Zone000)
  movel(p[0.75328, -0.11964, -0.02, 2.22144, 2.22144, 0], a=1, v=Speed000, r=Zone000)
  movel(p[0.75361, -0.11997, -0.02, 2.22144, 2.22144, 0], a=1, v=Speed000, r=Zone000)
  movel(p[0.75361, -0.11964, -0.02, 2.22144, 2.22144, 0], a=1, v=Speed000, r=Zone000)
  movel(p[0.75395, -0.11997, -0.02, 2.22144, 2.22144, 0], a=1, v=Speed000, r=Zone000)
  movel(p[0.75395, -0.11964, -0.02, 2.22144, 2.22144, 0], a=1, v=Speed000, r=Zone000)
  movel(p[0.75428, -0.11997, -0.02, 2.22144, 2.22144, 0], a=1, v=Speed000, r=Zone000)
  movel(p[0.75428, -0.11964, -0.02, 2.22144, 2.22144, 0], a=1, v=Speed000, r=Zone000)
  movel(p[0.75461, -0.11997, -0.02, 2.22144, 2.22144, 0], a=1, v=Speed000, r=Zone000)
  movel(p[0.75461, -0.11964, -0.02, 2.22144, 2.22144, 0], a=1, v=Speed000, r=Zone000)
  movel(p[0.75495, -0.11997, -0.02, 2.22144, 2.22144, 0], a=1, v=Speed000, r=Zone000)
  movel(p[0.75495, -0.11964, -0.02, 2.22144, 2.22144, 0], a=1, v=Speed000, r=Zone000)
  movel(p[0.75561, -0.11997, -0.02, 2.22144, 2.22144, 0], a=1, v=Speed000, r=Zone000)
  movel(p[0.75595, -0.11997, -0.02, 2.22144, 2.22144, 0], a=1, v=Speed000, r=Zone000)
  movel(p[0.75628, -0.11997, -0.02, 2.22144, 2.22144, 0], a=1, v=Speed000, r=Zone000)
  movel(p[0.75628, -0.11964, -0.02, 2.22144, 2.22144, 0], a=1, v=Speed000, r=Zone000)
  movel(p[0.75661, -0.11997, -0.02, 2.22144, 2.22144, 0], a=1, v=Speed000, r=Zone000)
  movel(p[0.75661, -0.11964, -0.02, 2.22144, 2.22144, 0], a=1, v=Speed000, r=Zone000)
  movel(p[0.75695, -0.11997, -0.02, 2.22144, 2.22144, 0], a=1, v=Speed000, r=Zone000)
  movel(p[0.75695, -0.11964, -0.02, 2.22144, 2.22144, 0], a=1, v=Speed000, r=Zone000)
  movel(p[0.75728, -0.11997, -0.015, 2.22144, 2.22144, 0], a=1, v=Speed000, r=Zone000)
  movel(p[0.76461, -0.11997, -0.015, 2.22144, 2.22144, 0], a=1, v=Speed000, r=Zone000)
  movel(p[0.76495, -0.11964, -0.02, 2.22144, 2.22144, 0], a=1, v=Speed000, r=Zone000)
  movel(p[0.76528, -0.11997, -0.02, 2.22144, 2.22144, 0], a=1, v=Speed000, r=Zone000)
  movel(p[0.76561, -0.11997, -0.02, 2.22144, 2.22144, 0], a=1, v=Speed000, r=Zone000)
  movel(p[0.76595, -0.11997, -0.02, 2.22144, 2.22144, 0], a=1, v=Speed000, r=Zone000)
  movel(p[0.76595, -0.11964, -0.02, 2.22144, 2.22144, 0], a=1, v=Speed000, r=Zone000)
  movel(p[0.76628, -0.11997, -0.02, 2.22144, 2.22144, 0], a=1, v=Speed000, r=Zone000)
  movel(p[0.76628, -0.11964, -0.02, 2.22144, 2.22144, 0], a=1, v=Speed000, r=Zone000)
  movel(p[0.76661, -0.11997, -0.02, 2.22144, 2.22144, 0], a=1, v=Speed000, r=Zone000)
  movel(p[0.76661, -0.11964, -0.02, 2.22144, 2.22144, 0], a=1, v=Speed000, r=Zone000)
  movel(p[0.76695, -0.11997, -0.02, 2.22144, 2.22144, 0], a=1, v=Speed000, r=Zone000)
  movel(p[0.76695, -0.11964, -0.02, 2.22144, 2.22144, 0], a=1, v=Speed000, r=Zone000)
  movel(p[0.76728, -0.11997, -0.02, 2.22144, 2.22144, 0], a=1, v=Speed000, r=Zone000)
  movel(p[0.76728, -0.11964, -0.02, 2.22144, 2.22144, 0], a=1, v=Speed000, r=Zone000)
  movel(p[0.76761, -0.11997, -0.02, 2.22144, 2.22144, 0], a=1, v=Speed000, r=Zone000)
  movel(p[0.76861, -0.11964, -0.02, 2.22144, 2.22144, 0], a=1, v=Speed000, r=Zone000)
  movel(p[0.76895, -0.11997, -0.02, 2.22144, 2.22144, 0], a=1, v=Speed000, r=Zone000)
  movel(p[0.76895, -0.11964, -0.015, 2.22144, 2.22144, 0], a=1, v=Speed000, r=Zone000)
  movel(p[0.77161, -0.11997, -0.015, 2.22144, 2.22144, 0], a=1, v=Speed000, r=Zone000)
  movel(p[0.77161, -0.11964, -0.02, 2.22144, 2.22144, 0], a=1, v=Speed000, r=Zone000)
  movel(p[0.77195, -0.11997, -0.02, 2.22144, 2.22144, 0], a=1, v=Speed000, r=Zone000)
  movel(p[0.77195, -0.11964, -0.02, 2.22144, 2.22144, 0], a=1, v=Speed000, r=Zone000)
  movel(p[0.77228, -0.11997, -0.02, 2.22144, 2.22144, 0], a=1, v=Speed000, r=Zone000)
  movel(p[0.77228, -0.11964, -0.02, 2.22144, 2.22144, 0], a=1, v=Speed000, r=Zone000)
  movel(p[0.77261, -0.11997, -0.02, 2.22144, 2.22144, 0], a=1, v=Speed000, r=Zone000)
  movel(p[0.77261, -0.11964, -0.02, 2.22144, 2.22144, 0], a=1, v=Speed000, r=Zone000)
  movel(p[0.77295, -0.11997, -0.02, 2.22144, 2.22144, 0], a=1, v=Speed000, r=Zone000)
  movel(p[0.77295, -0.11964, -0.02, 2.22144, 2.22144, 0], a=1, v=Speed000, r=Zone000)
  movel(p[0.77328, -0.11997, -0.02, 2.22144, 2.22144, 0], a=1, v=Speed000, r=Zone000)
  movel(p[0.77328, -0.11964, -0.02, 2.22144, 2.22144, 0], a=1, v=Speed000, r=Zone000)
  movel(p[0.77361, -0.11997, -0.02, 2.22144, 2.22144, 0], a=1, v=Speed000, r=Zone000)
  movel(p[0.77361, -0.11964, -0.02, 2.22144, 2.22144, 0], a=1, v=Speed000, r=Zone000)
  movel(p[0.77395, -0.11997, -0.02, 2.22144, 2.22144, 0], a=1, v=Speed000, r=Zone000)
  movel(p[0.77395, -0.11964, -0.02, 2.22144, 2.22144, 0], a=1, v=Speed000, r=Zone000)
  movel(p[0.77428, -0.11997, -0.02, 2.22144, 2.22144, 0], a=1, v=Speed000, r=Zone000)
  movel(p[0.77428, -0.11964, -0.02, 2.22144, 2.22144, 0], a=1, v=Speed000, r=Zone000)
  movel(p[0.77461, -0.11997, -0.02, 2.22144, 2.22144, 0], a=1, v=Speed000, r=Zone000)
  movel(p[0.77461, -0.11964, -0.02, 2.22144, 2.22144, 0], a=1, v=Speed000, r=Zone000)
  movel(p[0.77495, -0.11997, -0.02, 2.22144, 2.22144, 0], a=1, v=Speed000, r=Zone000)
  movel(p[0.77495, -0.11964, -0.02, 2.22144, 2.22144, 0], a=1, v=Speed000, r=Zone000)
  movel(p[0.77528, -0.11997, -0.02, 2.22144, 2.22144, 0], a=1, v=Speed000, r=Zone000)
  movel(p[0.77528, -0.11964, -0.02, 2.22144, 2.22144, 0], a=1, v=Speed000, r=Zone000)
  movel(p[0.77561, -0.11997, -0.02, 2.22144, 2.22144, 0], a=1, v=Speed000, r=Zone000)
  movel(p[0.77561, -0.11964, -0.02, 2.22144, 2.22144, 0], a=1, v=Speed000, r=Zone000)
  movel(p[0.77595, -0.11997, -0.02, 2.22144, 2.22144, 0], a=1, v=Speed000, r=Zone000)
  movel(p[0.77595, -0.11964, -0.02, 2.22144, 2.22144, 0], a=1, v=Speed000, r=Zone000)
  movel(p[0.77628, -0.11997, -0.02, 2.22144, 2.22144, 0], a=1, v=Speed000, r=Zone000)
  movel(p[0.77628, -0.11964, -0.02, 2.22144, 2.22144, 0], a=1, v=Speed000, r=Zone000)
  movel(p[0.77661, -0.11997, -0.02, 2.22144, 2.22144, 0], a=1, v=Speed000, r=Zone000)
  movel(p[0.77661, -0.11964, -0.02, 2.22144, 2.22144, 0], a=1, v=Speed000, r=Zone000)
  movel(p[0.77695, -0.11997, -0.02, 2.22144, 2.22144, 0], a=1, v=Speed000, r=Zone000)
  movel(p[0.77695, -0.11964, -0.02, 2.22144, 2.22144, 0], a=1, v=Speed000, r=Zone000)
  movel(p[0.77728, -0.11997, -0.02, 2.22144, 2.22144, 0], a=1, v=Speed000, r=Zone000)
  movel(p[0.77728, -0.11964, -0.02, 2.22144, 2.22144, 0], a=1, v=Speed000, r=Zone000)
  movel(p[0.77761, -0.11997, -0.02, 2.22144, 2.22144, 0], a=1, v=Speed000, r=Zone000)
  movel(p[0.77761, -0.11964, -0.02, 2.22144, 2.22144, 0], a=1, v=Speed000, r=Zone000)
  movel(p[0.77795, -0.11997, -0.02, 2.22144, 2.22144, 0], a=1, v=Speed000, r=Zone000)
  movel(p[0.77795, -0.11964, -0.02, 2.22144, 2.22144, 0], a=1, v=Speed000, r=Zone000)
  movel(p[0.77828, -0.11997, -0.02, 2.22144, 2.22144, 0], a=1, v=Speed000, r=Zone000)
  movel(p[0.77828, -0.11964, -0.02, 2.22144, 2.22144, 0], a=1, v=Speed000, r=Zone000)
  movel(p[0.77861, -0.11997, -0.02, 2.22144, 2.22144, 0], a=1, v=Speed000, r=Zone000)
  movel(p[0.77861, -0.11964, -0.02, 2.22144, 2.22144, 0], a=1, v=Speed000, r=Zone000)
  movel(p[0.77895, -0.11997, -0.02, 2.22144, 2.22144, 0], a=1, v=Speed000, r=Zone000)
  movel(p[0.77895, -0.11964, -0.02, 2.22144, 2.22144, 0], a=1, v=Speed000, r=Zone000)
  movel(p[0.77928, -0.11997, -0.02, 2.22144, 2.22144, 0], a=1, v=Speed000, r=Zone000)
  movel(p[0.77928, -0.11964, -0.02, 2.22144, 2.22144, 0], a=1, v=Speed000, r=Zone000)
  movel(p[0.77961, -0.11997, -0.02, 2.22144, 2.22144, 0], a=1, v=Speed000, r=Zone000)
  movel(p[0.77961, -0.11964, -0.02, 2.22144, 2.22144, 0], a=1, v=Speed000, r=Zone000)
  movel(p[0.77995, -0.11997, -0.02, 2.22144, 2.22144, 0], a=1, v=Speed000, r=Zone000)
  movel(p[0.77995, -0.11964, -0.02, 2.22144, 2.22144, 0], a=1, v=Speed000, r=Zone000)
  movel(p[0.78028, -0.11997, -0.02, 2.22144, 2.22144, 0], a=1, v=Speed000, r=Zone000)
  movel(p[0.78028, -0.11964, -0.02, 2.22144, 2.22144, 0], a=1, v=Speed000, r=Zone000)
  movel(p[0.78061, -0.11997, -0.02, 2.22144, 2.22144, 0], a=1, v=Speed000, r=Zone000)
  movel(p[0.78061, -0.11964, -0.02, 2.22144, 2.22144, 0], a=1, v=Speed000, r=Zone000)
  movel(p[0.78095, -0.11997, -0.02, 2.22144, 2.22144, 0], a=1, v=Speed000, r=Zone000)
  movel(p[0.78095, -0.11964, -0.02, 2.22144, 2.22144, 0], a=1, v=Speed000, r=Zone000)
  movel(p[0.78128, -0.11997, -0.02, 2.22144, 2.22144, 0], a=1, v=Speed000, r=Zone000)
  movel(p[0.78128, -0.11964, -0.02, 2.22144, 2.22144, 0], a=1, v=Speed000, r=Zone000)
  movel(p[0.78161, -0.11997, -0.02, 2.22144, 2.22144, 0], a=1, v=Speed000, r=Zone000)
  movel(p[0.78161, -0.11964, -0.02, 2.22144, 2.22144, 0], a=1, v=Speed000, r=Zone000)
  movel(p[0.78195, -0.11997, -0.02, 2.22144, 2.22144, 0], a=1, v=Speed000, r=Zone000)
  movel(p[0.78195, -0.11964, -0.02, 2.22144, 2.22144, 0], a=1, v=Speed000, r=Zone000)
  movel(p[0.78228, -0.11964, -0.02, 2.22144, 2.22144, 0], a=1, v=Speed000, r=Zone000)
  movel(p[0.78261, -0.11964, -0.015, 2.22144, 2.22144, 0], a=1, v=Speed000, r=Zone000)
  movel(p[0.78395, -0.11897, -0.015, 2.22144, 2.22144, 0], a=1, v=Speed000, r=Zone000)
  movel(p[0.78361, -0.11897, -0.02, 2.22144, 2.22144, 0], a=1, v=Speed000, r=Zone000)
  movel(p[0.78328, -0.11931, -0.02, 2.22144, 2.22144, 0], a=1, v=Speed000, r=Zone000)
  movel(p[0.78328, -0.11897, -0.02, 2.22144, 2.22144, 0], a=1, v=Speed000, r=Zone000)
  movel(p[0.78295, -0.11931, -0.02, 2.22144, 2.22144, 0], a=1, v=Speed000, r=Zone000)
  movel(p[0.78295, -0.11897, -0.02, 2.22144, 2.22144, 0], a=1, v=Speed000, r=Zone000)
  movel(p[0.78261, -0.11931, -0.02, 2.22144, 2.22144, 0], a=1, v=Speed000, r=Zone000)
  movel(p[0.78261, -0.11897, -0.02, 2.22144, 2.22144, 0], a=1, v=Speed000, r=Zone000)
  movel(p[0.78228, -0.11931, -0.02, 2.22144, 2.22144, 0], a=1, v=Speed000, r=Zone000)
  movel(p[0.78228, -0.11897, -0.02, 2.22144, 2.22144, 0], a=1, v=Speed000, r=Zone000)
  movel(p[0.78195, -0.11931, -0.02, 2.22144, 2.22144, 0], a=1, v=Speed000, r=Zone000)
  movel(p[0.78195, -0.11897, -0.02, 2.22144, 2.22144, 0], a=1, v=Speed000, r=Zone000)
  movel(p[0.78161, -0.11931, -0.02, 2.22144, 2.22144, 0], a=1, v=Speed000, r=Zone000)
  movel(p[0.78161, -0.11897, -0.02, 2.22144, 2.22144, 0], a=1, v=Speed000, r=Zone000)
  movel(p[0.78128, -0.11931, -0.02, 2.22144, 2.22144, 0], a=1, v=Speed000, r=Zone000)
  movel(p[0.78128, -0.11897, -0.02, 2.22144, 2.22144, 0], a=1, v=Speed000, r=Zone000)
  movel(p[0.78095, -0.11931, -0.02, 2.22144, 2.22144, 0], a=1, v=Speed000, r=Zone000)
  movel(p[0.78095, -0.11897, -0.02, 2.22144, 2.22144, 0], a=1, v=Speed000, r=Zone000)
  movel(p[0.78061, -0.11931, -0.02, 2.22144, 2.22144, 0], a=1, v=Speed000, r=Zone000)
  movel(p[0.78061, -0.11897, -0.02, 2.22144, 2.22144, 0], a=1, v=Speed000, r=Zone000)
  movel(p[0.78028, -0.11931, -0.02, 2.22144, 2.22144, 0], a=1, v=Speed000, r=Zone000)
  movel(p[0.78028, -0.11897, -0.02, 2.22144, 2.22144, 0], a=1, v=Speed000, r=Zone000)
  movel(p[0.77995, -0.11931, -0.02, 2.22144, 2.22144, 0], a=1, v=Speed000, r=Zone000)
  movel(p[0.77995, -0.11897, -0.02, 2.22144, 2.22144, 0], a=1, v=Speed000, r=Zone000)
  movel(p[0.77961, -0.11931, -0.02, 2.22144, 2.22144, 0], a=1, v=Speed000, r=Zone000)
  movel(p[0.77961, -0.11897, -0.02, 2.22144, 2.22144, 0], a=1, v=Speed000, r=Zone000)
  movel(p[0.77928, -0.11931, -0.02, 2.22144, 2.22144, 0], a=1, v=Speed000, r=Zone000)
  movel(p[0.77928, -0.11897, -0.02, 2.22144, 2.22144, 0], a=1, v=Speed000, r=Zone000)
  movel(p[0.77895, -0.11931, -0.02, 2.22144, 2.22144, 0], a=1, v=Speed000, r=Zone000)
  movel(p[0.77895, -0.11897, -0.02, 2.22144, 2.22144, 0], a=1, v=Speed000, r=Zone000)
  movel(p[0.77861, -0.11931, -0.02, 2.22144, 2.22144, 0], a=1, v=Speed000, r=Zone000)
  movel(p[0.77861, -0.11897, -0.02, 2.22144, 2.22144, 0], a=1, v=Speed000, r=Zone000)
  movel(p[0.77828, -0.11931, -0.02, 2.22144, 2.22144, 0], a=1, v=Speed000, r=Zone000)
  movel(p[0.77828, -0.11897, -0.02, 2.22144, 2.22144, 0], a=1, v=Speed000, r=Zone000)
  movel(p[0.77795, -0.11931, -0.02, 2.22144, 2.22144, 0], a=1, v=Speed000, r=Zone000)
  movel(p[0.77795, -0.11897, -0.02, 2.22144, 2.22144, 0], a=1, v=Speed000, r=Zone000)
  movel(p[0.77761, -0.11931, -0.02, 2.22144, 2.22144, 0], a=1, v=Speed000, r=Zone000)
  movel(p[0.77761, -0.11897, -0.02, 2.22144, 2.22144, 0], a=1, v=Speed000, r=Zone000)
  movel(p[0.77728, -0.11931, -0.02, 2.22144, 2.22144, 0], a=1, v=Speed000, r=Zone000)
  movel(p[0.77728, -0.11897, -0.02, 2.22144, 2.22144, 0], a=1, v=Speed000, r=Zone000)
  movel(p[0.77695, -0.11931, -0.02, 2.22144, 2.22144, 0], a=1, v=Speed000, r=Zone000)
  movel(p[0.77695, -0.11897, -0.02, 2.22144, 2.22144, 0], a=1, v=Speed000, r=Zone000)
  movel(p[0.77661, -0.11931, -0.02, 2.22144, 2.22144, 0], a=1, v=Speed000, r=Zone000)
  movel(p[0.77661, -0.11897, -0.02, 2.22144, 2.22144, 0], a=1, v=Speed000, r=Zone000)
  movel(p[0.77628, -0.11931, -0.02, 2.22144, 2.22144, 0], a=1, v=Speed000, r=Zone000)
  movel(p[0.77628, -0.11897, -0.02, 2.22144, 2.22144, 0], a=1, v=Speed000, r=Zone000)
  movel(p[0.77595, -0.11931, -0.02, 2.22144, 2.22144, 0], a=1, v=Speed000, r=Zone000)
  movel(p[0.77595, -0.11897, -0.02, 2.22144, 2.22144, 0], a=1, v=Speed000, r=Zone000)
  movel(p[0.77561, -0.11931, -0.02, 2.22144, 2.22144, 0], a=1, v=Speed000, r=Zone000)
  movel(p[0.77561, -0.11897, -0.02, 2.22144, 2.22144, 0], a=1, v=Speed000, r=Zone000)
  movel(p[0.77528, -0.11931, -0.02, 2.22144, 2.22144, 0], a=1, v=Speed000, r=Zone000)
  movel(p[0.77528, -0.11897, -0.02, 2.22144, 2.22144, 0], a=1, v=Speed000, r=Zone000)
  movel(p[0.77495, -0.11931, -0.02, 2.22144, 2.22144, 0], a=1, v=Speed000, r=Zone000)
  movel(p[0.77495, -0.11897, -0.02, 2.22144, 2.22144, 0], a=1, v=Speed000, r=Zone000)
  movel(p[0.77461, -0.11931, -0.02, 2.22144, 2.22144, 0], a=1, v=Speed000, r=Zone000)
  movel(p[0.77461, -0.11897, -0.02, 2.22144, 2.22144, 0], a=1, v=Speed000, r=Zone000)
  movel(p[0.77428, -0.11931, -0.02, 2.22144, 2.22144, 0], a=1, v=Speed000, r=Zone000)
  movel(p[0.77428, -0.11897, -0.02, 2.22144, 2.22144, 0], a=1, v=Speed000, r=Zone000)
  movel(p[0.77395, -0.11931, -0.02, 2.22144, 2.22144, 0], a=1, v=Speed000, r=Zone000)
  movel(p[0.77395, -0.11897, -0.02, 2.22144, 2.22144, 0], a=1, v=Speed000, r=Zone000)
  movel(p[0.77361, -0.11931, -0.02, 2.22144, 2.22144, 0], a=1, v=Speed000, r=Zone000)
  movel(p[0.77361, -0.11897, -0.02, 2.22144, 2.22144, 0], a=1, v=Speed000, r=Zone000)
  movel(p[0.77328, -0.11931, -0.02, 2.22144, 2.22144, 0], a=1, v=Speed000, r=Zone000)
  movel(p[0.77328, -0.11897, -0.02, 2.22144, 2.22144, 0], a=1, v=Speed000, r=Zone000)
  movel(p[0.77295, -0.11931, -0.02, 2.22144, 2.22144, 0], a=1, v=Speed000, r=Zone000)
  movel(p[0.77295, -0.11897, -0.02, 2.22144, 2.22144, 0], a=1, v=Speed000, r=Zone000)
  movel(p[0.77261, -0.11931, -0.02, 2.22144, 2.22144, 0], a=1, v=Speed000, r=Zone000)
  movel(p[0.77261, -0.11897, -0.02, 2.22144, 2.22144, 0], a=1, v=Speed000, r=Zone000)
  movel(p[0.77228, -0.11931, -0.02, 2.22144, 2.22144, 0], a=1, v=Speed000, r=Zone000)
  movel(p[0.77228, -0.11897, -0.02, 2.22144, 2.22144, 0], a=1, v=Speed000, r=Zone000)
  movel(p[0.77195, -0.11931, -0.02, 2.22144, 2.22144, 0], a=1, v=Speed000, r=Zone000)
  movel(p[0.77195, -0.11897, -0.02, 2.22144, 2.22144, 0], a=1, v=Speed000, r=Zone000)
  movel(p[0.77161, -0.11931, -0.02, 2.22144, 2.22144, 0], a=1, v=Speed000, r=Zone000)
  movel(p[0.77161, -0.11897, -0.02, 2.22144, 2.22144, 0], a=1, v=Speed000, r=Zone000)
  movel(p[0.77128, -0.11897, -0.015, 2.22144, 2.22144, 0], a=1, v=Speed000, r=Zone000)
  movel(p[0.76861, -0.11931, -0.015, 2.22144, 2.22144, 0], a=1, v=Speed000, r=Zone000)
  movel(p[0.76861, -0.11897, -0.02, 2.22144, 2.22144, 0], a=1, v=Speed000, r=Zone000)
  movel(p[0.76828, -0.11931, -0.02, 2.22144, 2.22144, 0], a=1, v=Speed000, r=Zone000)
  movel(p[0.76828, -0.11897, -0.02, 2.22144, 2.22144, 0], a=1, v=Speed000, r=Zone000)
  movel(p[0.76795, -0.11897, -0.02, 2.22144, 2.22144, 0], a=1, v=Speed000, r=Zone000)
  movel(p[0.76661, -0.11931, -0.02, 2.22144, 2.22144, 0], a=1, v=Speed000, r=Zone000)
  movel(p[0.76628, -0.11931, -0.02, 2.22144, 2.22144, 0], a=1, v=Speed000, r=Zone000)
  movel(p[0.76528, -0.11931, -0.02, 2.22144, 2.22144, 0], a=1, v=Speed000, r=Zone000)
  movel(p[0.76528, -0.11897, -0.02, 2.22144, 2.22144, 0], a=1, v=Speed000, r=Zone000)
  movel(p[0.76495, -0.11931, -0.015, 2.22144, 2.22144, 0], a=1, v=Speed000, r=Zone000)
  movel(p[0.75895, -0.11897, -0.015, 2.22144, 2.22144, 0], a=1, v=Speed000, r=Zone000)
  movel(p[0.75595, -0.11897, -0.015, 2.22144, 2.22144, 0], a=1, v=Speed000, r=Zone000)
  movel(p[0.75561, -0.11897, -0.02, 2.22144, 2.22144, 0], a=1, v=Speed000, r=Zone000)
  movel(p[0.75528, -0.11931, -0.02, 2.22144, 2.22144, 0], a=1, v=Speed000, r=Zone000)
  movel(p[0.75528, -0.11897, -0.02, 2.22144, 2.22144, 0], a=1, v=Speed000, r=Zone000)
  movel(p[0.75495, -0.11931, -0.02, 2.22144, 2.22144, 0], a=1, v=Speed000, r=Zone000)
  movel(p[0.75495, -0.11897, -0.02, 2.22144, 2.22144, 0], a=1, v=Speed000, r=Zone000)
  movel(p[0.75461, -0.11931, -0.02, 2.22144, 2.22144, 0], a=1, v=Speed000, r=Zone000)
  movel(p[0.75461, -0.11897, -0.02, 2.22144, 2.22144, 0], a=1, v=Speed000, r=Zone000)
  movel(p[0.75428, -0.11931, -0.02, 2.22144, 2.22144, 0], a=1, v=Speed000, r=Zone000)
  movel(p[0.75428, -0.11897, -0.02, 2.22144, 2.22144, 0], a=1, v=Speed000, r=Zone000)
  movel(p[0.75395, -0.11931, -0.02, 2.22144, 2.22144, 0], a=1, v=Speed000, r=Zone000)
  movel(p[0.75395, -0.11897, -0.02, 2.22144, 2.22144, 0], a=1, v=Speed000, r=Zone000)
  movel(p[0.75361, -0.11931, -0.02, 2.22144, 2.22144, 0], a=1, v=Speed000, r=Zone000)
  movel(p[0.75361, -0.11897, -0.02, 2.22144, 2.22144, 0], a=1, v=Speed000, r=Zone000)
  movel(p[0.75328, -0.11931, -0.02, 2.22144, 2.22144, 0], a=1, v=Speed000, r=Zone000)
  movel(p[0.75328, -0.11897, -0.02, 2.22144, 2.22144, 0], a=1, v=Speed000, r=Zone000)
  movel(p[0.75295, -0.11931, -0.02, 2.22144, 2.22144, 0], a=1, v=Speed000, r=Zone000)
  movel(p[0.75295, -0.11897, -0.02, 2.22144, 2.22144, 0], a=1, v=Speed000, r=Zone000)
  movel(p[0.75261, -0.11931, -0.02, 2.22144, 2.22144, 0], a=1, v=Speed000, r=Zone000)
  movel(p[0.75261, -0.11897, -0.02, 2.22144, 2.22144, 0], a=1, v=Speed000, r=Zone000)
  movel(p[0.75228, -0.11931, -0.02, 2.22144, 2.22144, 0], a=1, v=Speed000, r=Zone000)
  movel(p[0.75228, -0.11897, -0.02, 2.22144, 2.22144, 0], a=1, v=Speed000, r=Zone000)
  movel(p[0.75195, -0.11931, -0.02, 2.22144, 2.22144, 0], a=1, v=Speed000, r=Zone000)
  movel(p[0.75195, -0.11897, -0.02, 2.22144, 2.22144, 0], a=1, v=Speed000, r=Zone000)
  movel(p[0.75161, -0.11931, -0.02, 2.22144, 2.22144, 0], a=1, v=Speed000, r=Zone000)
  movel(p[0.75161, -0.11897, -0.02, 2.22144, 2.22144, 0], a=1, v=Speed000, r=Zone000)
  movel(p[0.75128, -0.11931, -0.02, 2.22144, 2.22144, 0], a=1, v=Speed000, r=Zone000)
  movel(p[0.75128, -0.11897, -0.02, 2.22144, 2.22144, 0], a=1, v=Speed000, r=Zone000)
  movel(p[0.75095, -0.11897, -0.02, 2.22144, 2.22144, 0], a=1, v=Speed000, r=Zone000)
  movel(p[0.75061, -0.11831, -0.02, 2.22144, 2.22144, 0], a=1, v=Speed000, r=Zone000)
  movel(p[0.75095, -0.11864, -0.02, 2.22144, 2.22144, 0], a=1, v=Speed000, r=Zone000)
  movel(p[0.75095, -0.11831, -0.02, 2.22144, 2.22144, 0], a=1, v=Speed000, r=Zone000)
  movel(p[0.75128, -0.11864, -0.02, 2.22144, 2.22144, 0], a=1, v=Speed000, r=Zone000)
  movel(p[0.75128, -0.11831, -0.02, 2.22144, 2.22144, 0], a=1, v=Speed000, r=Zone000)
  movel(p[0.75161, -0.11864, -0.02, 2.22144, 2.22144, 0], a=1, v=Speed000, r=Zone000)
  movel(p[0.75161, -0.11831, -0.02, 2.22144, 2.22144, 0], a=1, v=Speed000, r=Zone000)
  movel(p[0.75195, -0.11864, -0.02, 2.22144, 2.22144, 0], a=1, v=Speed000, r=Zone000)
  movel(p[0.75195, -0.11831, -0.02, 2.22144, 2.22144, 0], a=1, v=Speed000, r=Zone000)
  movel(p[0.75228, -0.11864, -0.02, 2.22144, 2.22144, 0], a=1, v=Speed000, r=Zone000)
  movel(p[0.75228, -0.11831, -0.02, 2.22144, 2.22144, 0], a=1, v=Speed000, r=Zone000)
  movel(p[0.75261, -0.11864, -0.02, 2.22144, 2.22144, 0], a=1, v=Speed000, r=Zone000)
  movel(p[0.75261, -0.11831, -0.02, 2.22144, 2.22144, 0], a=1, v=Speed000, r=Zone000)
  movel(p[0.75295, -0.11864, -0.02, 2.22144, 2.22144, 0], a=1, v=Speed000, r=Zone000)
  movel(p[0.75295, -0.11831, -0.02, 2.22144, 2.22144, 0], a=1, v=Speed000, r=Zone000)
  movel(p[0.75328, -0.11864, -0.02, 2.22144, 2.22144, 0], a=1, v=Speed000, r=Zone000)
  movel(p[0.75328, -0.11831, -0.02, 2.22144, 2.22144, 0], a=1, v=Speed000, r=Zone000)
  movel(p[0.75361, -0.11864, -0.02, 2.22144, 2.22144, 0], a=1, v=Speed000, r=Zone000)
  movel(p[0.75361, -0.11831, -0.02, 2.22144, 2.22144, 0], a=1, v=Speed000, r=Zone000)
  movel(p[0.75395, -0.11864, -0.02, 2.22144, 2.22144, 0], a=1, v=Speed000, r=Zone000)
  movel(p[0.75395, -0.11831, -0.02, 2.22144, 2.22144, 0], a=1, v=Speed000, r=Zone000)
  movel(p[0.75428, -0.11864, -0.02, 2.22144, 2.22144, 0], a=1, v=Speed000, r=Zone000)
  movel(p[0.75428, -0.11831, -0.02, 2.22144, 2.22144, 0], a=1, v=Speed000, r=Zone000)
  movel(p[0.75461, -0.11864, -0.02, 2.22144, 2.22144, 0], a=1, v=Speed000, r=Zone000)
  movel(p[0.75461, -0.11831, -0.02, 2.22144, 2.22144, 0], a=1, v=Speed000, r=Zone000)
  movel(p[0.75495, -0.11864, -0.02, 2.22144, 2.22144, 0], a=1, v=Speed000, r=Zone000)
  movel(p[0.75495, -0.11831, -0.02, 2.22144, 2.22144, 0], a=1, v=Speed000, r=Zone000)
  movel(p[0.75528, -0.11864, -0.02, 2.22144, 2.22144, 0], a=1, v=Speed000, r=Zone000)
  movel(p[0.75528, -0.11831, -0.02, 2.22144, 2.22144, 0], a=1, v=Speed000, r=Zone000)
  movel(p[0.75561, -0.11864, -0.02, 2.22144, 2.22144, 0], a=1, v=Speed000, r=Zone000)
  movel(p[0.75561, -0.11831, -0.02, 2.22144, 2.22144, 0], a=1, v=Speed000, r=Zone000)
  movel(p[0.75595, -0.11864, -0.02, 2.22144, 2.22144, 0], a=1, v=Speed000, r=Zone000)
  movel(p[0.75595, -0.11831, -0.015, 2.22144, 2.22144, 0], a=1, v=Speed000, r=Zone000)
  movel(p[0.75861, -0.11864, -0.015, 2.22144, 2.22144, 0], a=1, v=Speed000, r=Zone000)
  movel(p[0.75861, -0.11831, -0.015, 2.22144, 2.22144, 0], a=1, v=Speed000, r=Zone000)
  movel(p[0.76795, -0.11864, -0.015, 2.22144, 2.22144, 0], a=1, v=Speed000, r=Zone000)
  movel(p[0.77128, -0.11864, -0.015, 2.22144, 2.22144, 0], a=1, v=Speed000, r=Zone000)
  movel(p[0.77128, -0.11831, -0.02, 2.22144, 2.22144, 0], a=1, v=Speed000, r=Zone000)
  movel(p[0.77161, -0.11864, -0.02, 2.22144, 2.22144, 0], a=1, v=Speed000, r=Zone000)
  movel(p[0.77161, -0.11831, -0.02, 2.22144, 2.22144, 0], a=1, v=Speed000, r=Zone000)
  movel(p[0.77195, -0.11864, -0.02, 2.22144, 2.22144, 0], a=1, v=Speed000, r=Zone000)
  movel(p[0.77195, -0.11831, -0.02, 2.22144, 2.22144, 0], a=1, v=Speed000, r=Zone000)
  movel(p[0.77228, -0.11864, -0.02, 2.22144, 2.22144, 0], a=1, v=Speed000, r=Zone000)
  movel(p[0.77228, -0.11831, -0.02, 2.22144, 2.22144, 0], a=1, v=Speed000, r=Zone000)
  movel(p[0.77261, -0.11864, -0.02, 2.22144, 2.22144, 0], a=1, v=Speed000, r=Zone000)
  movel(p[0.77261, -0.11831, -0.02, 2.22144, 2.22144, 0], a=1, v=Speed000, r=Zone000)
  movel(p[0.77295, -0.11864, -0.02, 2.22144, 2.22144, 0], a=1, v=Speed000, r=Zone000)
  movel(p[0.77295, -0.11831, -0.02, 2.22144, 2.22144, 0], a=1, v=Speed000, r=Zone000)
  movel(p[0.77328, -0.11864, -0.02, 2.22144, 2.22144, 0], a=1, v=Speed000, r=Zone000)
  movel(p[0.77328, -0.11831, -0.02, 2.22144, 2.22144, 0], a=1, v=Speed000, r=Zone000)
  movel(p[0.77361, -0.11864, -0.02, 2.22144, 2.22144, 0], a=1, v=Speed000, r=Zone000)
  movel(p[0.77361, -0.11831, -0.02, 2.22144, 2.22144, 0], a=1, v=Speed000, r=Zone000)
  movel(p[0.77395, -0.11864, -0.02, 2.22144, 2.22144, 0], a=1, v=Speed000, r=Zone000)
  movel(p[0.77395, -0.11831, -0.02, 2.22144, 2.22144, 0], a=1, v=Speed000, r=Zone000)
  movel(p[0.77428, -0.11864, -0.02, 2.22144, 2.22144, 0], a=1, v=Speed000, r=Zone000)
  movel(p[0.77428, -0.11831, -0.02, 2.22144, 2.22144, 0], a=1, v=Speed000, r=Zone000)
  movel(p[0.77461, -0.11864, -0.02, 2.22144, 2.22144, 0], a=1, v=Speed000, r=Zone000)
  movel(p[0.77461, -0.11831, -0.02, 2.22144, 2.22144, 0], a=1, v=Speed000, r=Zone000)
  movel(p[0.77495, -0.11864, -0.02, 2.22144, 2.22144, 0], a=1, v=Speed000, r=Zone000)
  movel(p[0.77495, -0.11831, -0.02, 2.22144, 2.22144, 0], a=1, v=Speed000, r=Zone000)
  movel(p[0.77528, -0.11864, -0.02, 2.22144, 2.22144, 0], a=1, v=Speed000, r=Zone000)
  movel(p[0.77528, -0.11831, -0.02, 2.22144, 2.22144, 0], a=1, v=Speed000, r=Zone000)
  movel(p[0.77561, -0.11864, -0.02, 2.22144, 2.22144, 0], a=1, v=Speed000, r=Zone000)
  movel(p[0.77561, -0.11831, -0.02, 2.22144, 2.22144, 0], a=1, v=Speed000, r=Zone000)
  movel(p[0.77595, -0.11864, -0.02, 2.22144, 2.22144, 0], a=1, v=Speed000, r=Zone000)
  movel(p[0.77595, -0.11831, -0.02, 2.22144, 2.22144, 0], a=1, v=Speed000, r=Zone000)
  movel(p[0.77628, -0.11864, -0.02, 2.22144, 2.22144, 0], a=1, v=Speed000, r=Zone000)
  movel(p[0.77628, -0.11831, -0.02, 2.22144, 2.22144, 0], a=1, v=Speed000, r=Zone000)
  movel(p[0.77661, -0.11864, -0.02, 2.22144, 2.22144, 0], a=1, v=Speed000, r=Zone000)
  movel(p[0.77661, -0.11831, -0.02, 2.22144, 2.22144, 0], a=1, v=Speed000, r=Zone000)
  movel(p[0.77695, -0.11864, -0.02, 2.22144, 2.22144, 0], a=1, v=Speed000, r=Zone000)
  movel(p[0.77695, -0.11831, -0.02, 2.22144, 2.22144, 0], a=1, v=Speed000, r=Zone000)
  movel(p[0.77728, -0.11864, -0.02, 2.22144, 2.22144, 0], a=1, v=Speed000, r=Zone000)
  movel(p[0.77728, -0.11831, -0.02, 2.22144, 2.22144, 0], a=1, v=Speed000, r=Zone000)
  movel(p[0.77761, -0.11864, -0.02, 2.22144, 2.22144, 0], a=1, v=Speed000, r=Zone000)
  movel(p[0.77761, -0.11831, -0.02, 2.22144, 2.22144, 0], a=1, v=Speed000, r=Zone000)
  movel(p[0.77795, -0.11864, -0.02, 2.22144, 2.22144, 0], a=1, v=Speed000, r=Zone000)
  movel(p[0.77795, -0.11831, -0.02, 2.22144, 2.22144, 0], a=1, v=Speed000, r=Zone000)
  movel(p[0.77828, -0.11864, -0.02, 2.22144, 2.22144, 0], a=1, v=Speed000, r=Zone000)
  movel(p[0.77828, -0.11831, -0.02, 2.22144, 2.22144, 0], a=1, v=Speed000, r=Zone000)
  movel(p[0.77861, -0.11864, -0.02, 2.22144, 2.22144, 0], a=1, v=Speed000, r=Zone000)
  movel(p[0.77861, -0.11831, -0.02, 2.22144, 2.22144, 0], a=1, v=Speed000, r=Zone000)
  movel(p[0.77895, -0.11864, -0.02, 2.22144, 2.22144, 0], a=1, v=Speed000, r=Zone000)
  movel(p[0.77895, -0.11831, -0.02, 2.22144, 2.22144, 0], a=1, v=Speed000, r=Zone000)
  movel(p[0.77928, -0.11864, -0.02, 2.22144, 2.22144, 0], a=1, v=Speed000, r=Zone000)
  movel(p[0.77928, -0.11831, -0.02, 2.22144, 2.22144, 0], a=1, v=Speed000, r=Zone000)
  movel(p[0.77961, -0.11864, -0.02, 2.22144, 2.22144, 0], a=1, v=Speed000, r=Zone000)
  movel(p[0.77961, -0.11831, -0.02, 2.22144, 2.22144, 0], a=1, v=Speed000, r=Zone000)
  movel(p[0.77995, -0.11864, -0.02, 2.22144, 2.22144, 0], a=1, v=Speed000, r=Zone000)
  movel(p[0.77995, -0.11831, -0.02, 2.22144, 2.22144, 0], a=1, v=Speed000, r=Zone000)
  movel(p[0.78028, -0.11864, -0.02, 2.22144, 2.22144, 0], a=1, v=Speed000, r=Zone000)
  movel(p[0.78028, -0.11831, -0.02, 2.22144, 2.22144, 0], a=1, v=Speed000, r=Zone000)
  movel(p[0.78061, -0.11864, -0.02, 2.22144, 2.22144, 0], a=1, v=Speed000, r=Zone000)
  movel(p[0.78061, -0.11831, -0.02, 2.22144, 2.22144, 0], a=1, v=Speed000, r=Zone000)
  movel(p[0.78095, -0.11864, -0.02, 2.22144, 2.22144, 0], a=1, v=Speed000, r=Zone000)
  movel(p[0.78095, -0.11831, -0.02, 2.22144, 2.22144, 0], a=1, v=Speed000, r=Zone000)
  movel(p[0.78128, -0.11864, -0.02, 2.22144, 2.22144, 0], a=1, v=Speed000, r=Zone000)
  movel(p[0.78128, -0.11831, -0.02, 2.22144, 2.22144, 0], a=1, v=Speed000, r=Zone000)
  movel(p[0.78161, -0.11864, -0.02, 2.22144, 2.22144, 0], a=1, v=Speed000, r=Zone000)
  movel(p[0.78161, -0.11831, -0.02, 2.22144, 2.22144, 0], a=1, v=Speed000, r=Zone000)
  movel(p[0.78195, -0.11864, -0.02, 2.22144, 2.22144, 0], a=1, v=Speed000, r=Zone000)
  movel(p[0.78195, -0.11831, -0.02, 2.22144, 2.22144, 0], a=1, v=Speed000, r=Zone000)
  movel(p[0.78228, -0.11864, -0.02, 2.22144, 2.22144, 0], a=1, v=Speed000, r=Zone000)
  movel(p[0.78228, -0.11831, -0.02, 2.22144, 2.22144, 0], a=1, v=Speed000, r=Zone000)
  movel(p[0.78261, -0.11864, -0.02, 2.22144, 2.22144, 0], a=1, v=Speed000, r=Zone000)
  movel(p[0.78261, -0.11831, -0.02, 2.22144, 2.22144, 0], a=1, v=Speed000, r=Zone000)
  movel(p[0.78295, -0.11864, -0.02, 2.22144, 2.22144, 0], a=1, v=Speed000, r=Zone000)
  movel(p[0.78295, -0.11831, -0.02, 2.22144, 2.22144, 0], a=1, v=Speed000, r=Zone000)
  movel(p[0.78328, -0.11864, -0.02, 2.22144, 2.22144, 0], a=1, v=Speed000, r=Zone000)
  movel(p[0.78328, -0.11831, -0.02, 2.22144, 2.22144, 0], a=1, v=Speed000, r=Zone000)
  movel(p[0.78361, -0.11864, -0.02, 2.22144, 2.22144, 0], a=1, v=Speed000, r=Zone000)
  movel(p[0.78361, -0.11831, -0.02, 2.22144, 2.22144, 0], a=1, v=Speed000, r=Zone000)
  movel(p[0.78395, -0.11864, -0.02, 2.22144, 2.22144, 0], a=1, v=Speed000, r=Zone000)
  movel(p[0.78395, -0.11831, -0.02, 2.22144, 2.22144, 0], a=1, v=Speed000, r=Zone000)
  movel(p[0.78428, -0.11864, -0.02, 2.22144, 2.22144, 0], a=1, v=Speed000, r=Zone000)
  movel(p[0.78428, -0.11831, -0.02, 2.22144, 2.22144, 0], a=1, v=Speed000, r=Zone000)
  movel(p[0.78461, -0.11831, -0.02, 2.22144, 2.22144, 0], a=1, v=Speed000, r=Zone000)
  movel(p[0.78495, -0.11831, -0.02, 2.22144, 2.22144, 0], a=1, v=Speed000, r=Zone000)
  movel(p[0.78528, -0.11797, -0.02, 2.22144, 2.22144, 0], a=1, v=Speed000, r=Zone000)
  movel(p[0.78495, -0.11797, -0.02, 2.22144, 2.22144, 0], a=1, v=Speed000, r=Zone000)
  movel(p[0.78461, -0.11797, -0.02, 2.22144, 2.22144, 0], a=1, v=Speed000, r=Zone000)
  movel(p[0.78428, -0.11797, -0.02, 2.22144, 2.22144, 0], a=1, v=Speed000, r=Zone000)
  movel(p[0.78395, -0.11797, -0.02, 2.22144, 2.22144, 0], a=1, v=Speed000, r=Zone000)
  movel(p[0.78361, -0.11797, -0.02, 2.22144, 2.22144, 0], a=1, v=Speed000, r=Zone000)
  movel(p[0.78328, -0.11797, -0.02, 2.22144, 2.22144, 0], a=1, v=Speed000, r=Zone000)
  movel(p[0.78295, -0.11797, -0.02, 2.22144, 2.22144, 0], a=1, v=Speed000, r=Zone000)
  movel(p[0.78261, -0.11797, -0.02, 2.22144, 2.22144, 0], a=1, v=Speed000, r=Zone000)
  movel(p[0.78228, -0.11797, -0.02, 2.22144, 2.22144, 0], a=1, v=Speed000, r=Zone000)
  movel(p[0.78195, -0.11797, -0.02, 2.22144, 2.22144, 0], a=1, v=Speed000, r=Zone000)
  movel(p[0.78161, -0.11797, -0.02, 2.22144, 2.22144, 0], a=1, v=Speed000, r=Zone000)
  movel(p[0.78128, -0.11797, -0.02, 2.22144, 2.22144, 0], a=1, v=Speed000, r=Zone000)
  movel(p[0.78095, -0.11797, -0.02, 2.22144, 2.22144, 0], a=1, v=Speed000, r=Zone000)
  movel(p[0.78061, -0.11797, -0.02, 2.22144, 2.22144, 0], a=1, v=Speed000, r=Zone000)
  movel(p[0.78028, -0.11797, -0.02, 2.22144, 2.22144, 0], a=1, v=Speed000, r=Zone000)
  movel(p[0.77995, -0.11797, -0.02, 2.22144, 2.22144, 0], a=1, v=Speed000, r=Zone000)
  movel(p[0.77961, -0.11797, -0.02, 2.22144, 2.22144, 0], a=1, v=Speed000, r=Zone000)
  movel(p[0.77928, -0.11797, -0.02, 2.22144, 2.22144, 0], a=1, v=Speed000, r=Zone000)
  movel(p[0.77895, -0.11797, -0.02, 2.22144, 2.22144, 0], a=1, v=Speed000, r=Zone000)
  movel(p[0.77861, -0.11797, -0.02, 2.22144, 2.22144, 0], a=1, v=Speed000, r=Zone000)
  movel(p[0.77828, -0.11797, -0.02, 2.22144, 2.22144, 0], a=1, v=Speed000, r=Zone000)
  movel(p[0.77795, -0.11797, -0.02, 2.22144, 2.22144, 0], a=1, v=Speed000, r=Zone000)
  movel(p[0.77761, -0.11797, -0.02, 2.22144, 2.22144, 0], a=1, v=Speed000, r=Zone000)
  movel(p[0.77728, -0.11797, -0.02, 2.22144, 2.22144, 0], a=1, v=Speed000, r=Zone000)
  movel(p[0.77695, -0.11797, -0.02, 2.22144, 2.22144, 0], a=1, v=Speed000, r=Zone000)
  movel(p[0.77661, -0.11797, -0.02, 2.22144, 2.22144, 0], a=1, v=Speed000, r=Zone000)
  movel(p[0.77628, -0.11797, -0.02, 2.22144, 2.22144, 0], a=1, v=Speed000, r=Zone000)
  movel(p[0.77595, -0.11797, -0.02, 2.22144, 2.22144, 0], a=1, v=Speed000, r=Zone000)
  movel(p[0.77561, -0.11797, -0.02, 2.22144, 2.22144, 0], a=1, v=Speed000, r=Zone000)
  movel(p[0.77528, -0.11797, -0.02, 2.22144, 2.22144, 0], a=1, v=Speed000, r=Zone000)
  movel(p[0.77495, -0.11797, -0.02, 2.22144, 2.22144, 0], a=1, v=Speed000, r=Zone000)
  movel(p[0.77461, -0.11797, -0.02, 2.22144, 2.22144, 0], a=1, v=Speed000, r=Zone000)
  movel(p[0.77428, -0.11797, -0.02, 2.22144, 2.22144, 0], a=1, v=Speed000, r=Zone000)
  movel(p[0.77395, -0.11797, -0.02, 2.22144, 2.22144, 0], a=1, v=Speed000, r=Zone000)
  movel(p[0.77361, -0.11797, -0.02, 2.22144, 2.22144, 0], a=1, v=Speed000, r=Zone000)
  movel(p[0.77328, -0.11797, -0.02, 2.22144, 2.22144, 0], a=1, v=Speed000, r=Zone000)
  movel(p[0.77295, -0.11797, -0.02, 2.22144, 2.22144, 0], a=1, v=Speed000, r=Zone000)
  movel(p[0.77261, -0.11797, -0.02, 2.22144, 2.22144, 0], a=1, v=Speed000, r=Zone000)
  movel(p[0.77228, -0.11797, -0.02, 2.22144, 2.22144, 0], a=1, v=Speed000, r=Zone000)
  movel(p[0.77195, -0.11797, -0.02, 2.22144, 2.22144, 0], a=1, v=Speed000, r=Zone000)
  movel(p[0.77161, -0.11797, -0.02, 2.22144, 2.22144, 0], a=1, v=Speed000, r=Zone000)
  movel(p[0.77128, -0.11797, -0.015, 2.22144, 2.22144, 0], a=1, v=Speed000, r=Zone000)
  movel(p[0.75861, -0.11797, -0.015, 2.22144, 2.22144, 0], a=1, v=Speed000, r=Zone000)
  movel(p[0.75595, -0.11797, -0.015, 2.22144, 2.22144, 0], a=1, v=Speed000, r=Zone000)
  movel(p[0.75561, -0.11797, -0.02, 2.22144, 2.22144, 0], a=1, v=Speed000, r=Zone000)
  movel(p[0.75528, -0.11797, -0.02, 2.22144, 2.22144, 0], a=1, v=Speed000, r=Zone000)
  movel(p[0.75495, -0.11797, -0.02, 2.22144, 2.22144, 0], a=1, v=Speed000, r=Zone000)
  movel(p[0.75461, -0.11797, -0.02, 2.22144, 2.22144, 0], a=1, v=Speed000, r=Zone000)
  movel(p[0.75428, -0.11797, -0.02, 2.22144, 2.22144, 0], a=1, v=Speed000, r=Zone000)
  movel(p[0.75395, -0.11797, -0.02, 2.22144, 2.22144, 0], a=1, v=Speed000, r=Zone000)
  movel(p[0.75361, -0.11797, -0.02, 2.22144, 2.22144, 0], a=1, v=Speed000, r=Zone000)
  movel(p[0.75328, -0.11797, -0.02, 2.22144, 2.22144, 0], a=1, v=Speed000, r=Zone000)
  movel(p[0.75295, -0.11797, -0.02, 2.22144, 2.22144, 0], a=1, v=Speed000, r=Zone000)
  movel(p[0.75261, -0.11797, -0.02, 2.22144, 2.22144, 0], a=1, v=Speed000, r=Zone000)
  movel(p[0.75228, -0.11797, -0.02, 2.22144, 2.22144, 0], a=1, v=Speed000, r=Zone000)
  movel(p[0.75195, -0.11797, -0.02, 2.22144, 2.22144, 0], a=1, v=Speed000, r=Zone000)
  movel(p[0.75161, -0.11797, -0.02, 2.22144, 2.22144, 0], a=1, v=Speed000, r=Zone000)
  movel(p[0.75128, -0.11797, -0.02, 2.22144, 2.22144, 0], a=1, v=Speed000, r=Zone000)
  movel(p[0.75095, -0.11797, -0.02, 2.22144, 2.22144, 0], a=1, v=Speed000, r=Zone000)
  movel(p[0.75061, -0.11797, -0.02, 2.22144, 2.22144, 0], a=1, v=Speed000, r=Zone000)
  movel(p[0.75028, -0.11797, -0.02, 2.22144, 2.22144, 0], a=1, v=Speed000, r=Zone000)
  movel(p[0.74995, -0.11731, -0.02, 2.22144, 2.22144, 0], a=1, v=Speed000, r=Zone000)
  movel(p[0.75028, -0.11764, -0.02, 2.22144, 2.22144, 0], a=1, v=Speed000, r=Zone000)
  movel(p[0.75028, -0.11731, -0.02, 2.22144, 2.22144, 0], a=1, v=Speed000, r=Zone000)
  movel(p[0.75061, -0.11764, -0.02, 2.22144, 2.22144, 0], a=1, v=Speed000, r=Zone000)
  movel(p[0.75061, -0.11731, -0.02, 2.22144, 2.22144, 0], a=1, v=Speed000, r=Zone000)
  movel(p[0.75095, -0.11764, -0.02, 2.22144, 2.22144, 0], a=1, v=Speed000, r=Zone000)
  movel(p[0.75095, -0.11731, -0.02, 2.22144, 2.22144, 0], a=1, v=Speed000, r=Zone000)
  movel(p[0.75128, -0.11764, -0.02, 2.22144, 2.22144, 0], a=1, v=Speed000, r=Zone000)
  movel(p[0.75128, -0.11731, -0.02, 2.22144, 2.22144, 0], a=1, v=Speed000, r=Zone000)
  movel(p[0.75161, -0.11764, -0.02, 2.22144, 2.22144, 0], a=1, v=Speed000, r=Zone000)
  movel(p[0.75161, -0.11731, -0.02, 2.22144, 2.22144, 0], a=1, v=Speed000, r=Zone000)
  movel(p[0.75195, -0.11764, -0.02, 2.22144, 2.22144, 0], a=1, v=Speed000, r=Zone000)
  movel(p[0.75195, -0.11731, -0.02, 2.22144, 2.22144, 0], a=1, v=Speed000, r=Zone000)
  movel(p[0.75228, -0.11764, -0.02, 2.22144, 2.22144, 0], a=1, v=Speed000, r=Zone000)
  movel(p[0.75228, -0.11731, -0.02, 2.22144, 2.22144, 0], a=1, v=Speed000, r=Zone000)
  movel(p[0.75261, -0.11764, -0.02, 2.22144, 2.22144, 0], a=1, v=Speed000, r=Zone000)
  movel(p[0.75261, -0.11731, -0.02, 2.22144, 2.22144, 0], a=1, v=Speed000, r=Zone000)
  movel(p[0.75295, -0.11764, -0.02, 2.22144, 2.22144, 0], a=1, v=Speed000, r=Zone000)
  movel(p[0.75295, -0.11731, -0.02, 2.22144, 2.22144, 0], a=1, v=Speed000, r=Zone000)
  movel(p[0.75328, -0.11764, -0.02, 2.22144, 2.22144, 0], a=1, v=Speed000, r=Zone000)
  movel(p[0.75328, -0.11731, -0.02, 2.22144, 2.22144, 0], a=1, v=Speed000, r=Zone000)
  movel(p[0.75361, -0.11764, -0.02, 2.22144, 2.22144, 0], a=1, v=Speed000, r=Zone000)
  movel(p[0.75361, -0.11731, -0.02, 2.22144, 2.22144, 0], a=1, v=Speed000, r=Zone000)
  movel(p[0.75395, -0.11764, -0.02, 2.22144, 2.22144, 0], a=1, v=Speed000, r=Zone000)
  movel(p[0.75395, -0.11731, -0.02, 2.22144, 2.22144, 0], a=1, v=Speed000, r=Zone000)
  movel(p[0.75428, -0.11764, -0.02, 2.22144, 2.22144, 0], a=1, v=Speed000, r=Zone000)
  movel(p[0.75428, -0.11731, -0.02, 2.22144, 2.22144, 0], a=1, v=Speed000, r=Zone000)
  movel(p[0.75461, -0.11764, -0.02, 2.22144, 2.22144, 0], a=1, v=Speed000, r=Zone000)
  movel(p[0.75461, -0.11731, -0.02, 2.22144, 2.22144, 0], a=1, v=Speed000, r=Zone000)
  movel(p[0.75495, -0.11764, -0.02, 2.22144, 2.22144, 0], a=1, v=Speed000, r=Zone000)
  movel(p[0.75495, -0.11731, -0.02, 2.22144, 2.22144, 0], a=1, v=Speed000, r=Zone000)
  movel(p[0.75528, -0.11764, -0.02, 2.22144, 2.22144, 0], a=1, v=Speed000, r=Zone000)
  movel(p[0.75528, -0.11731, -0.02, 2.22144, 2.22144, 0], a=1, v=Speed000, r=Zone000)
  movel(p[0.75561, -0.11764, -0.02, 2.22144, 2.22144, 0], a=1, v=Speed000, r=Zone000)
  movel(p[0.75561, -0.11731, -0.02, 2.22144, 2.22144, 0], a=1, v=Speed000, r=Zone000)
  movel(p[0.75595, -0.11764, -0.02, 2.22144, 2.22144, 0], a=1, v=Speed000, r=Zone000)
  movel(p[0.75595, -0.11731, -0.015, 2.22144, 2.22144, 0], a=1, v=Speed000, r=Zone000)
  movel(p[0.75928, -0.11731, -0.015, 2.22144, 2.22144, 0], a=1, v=Speed000, r=Zone000)
  movel(p[0.76028, -0.11731, -0.02, 2.22144, 2.22144, 0], a=1, v=Speed000, r=Zone000)
  movel(p[0.76061, -0.11731, -0.015, 2.22144, 2.22144, 0], a=1, v=Speed000, r=Zone000)
  movel(p[0.76828, -0.11731, -0.015, 2.22144, 2.22144, 0], a=1, v=Speed000, r=Zone000)
  movel(p[0.76861, -0.11731, -0.02, 2.22144, 2.22144, 0], a=1, v=Speed000, r=Zone000)
  movel(p[0.76895, -0.11731, -0.015, 2.22144, 2.22144, 0], a=1, v=Speed000, r=Zone000)
  movel(p[0.77161, -0.11764, -0.015, 2.22144, 2.22144, 0], a=1, v=Speed000, r=Zone000)
  movel(p[0.77195, -0.11764, -0.02, 2.22144, 2.22144, 0], a=1, v=Speed000, r=Zone000)
  movel(p[0.77195, -0.11731, -0.02, 2.22144, 2.22144, 0], a=1, v=Speed000, r=Zone000)
  movel(p[0.77228, -0.11764, -0.02, 2.22144, 2.22144, 0], a=1, v=Speed000, r=Zone000)
  movel(p[0.77228, -0.11731, -0.02, 2.22144, 2.22144, 0], a=1, v=Speed000, r=Zone000)
  movel(p[0.77261, -0.11764, -0.02, 2.22144, 2.22144, 0], a=1, v=Speed000, r=Zone000)
  movel(p[0.77261, -0.11731, -0.02, 2.22144, 2.22144, 0], a=1, v=Speed000, r=Zone000)
  movel(p[0.77295, -0.11764, -0.02, 2.22144, 2.22144, 0], a=1, v=Speed000, r=Zone000)
  movel(p[0.77295, -0.11731, -0.02, 2.22144, 2.22144, 0], a=1, v=Speed000, r=Zone000)
  movel(p[0.77328, -0.11764, -0.02, 2.22144, 2.22144, 0], a=1, v=Speed000, r=Zone000)
  movel(p[0.77328, -0.11731, -0.02, 2.22144, 2.22144, 0], a=1, v=Speed000, r=Zone000)
  movel(p[0.77361, -0.11764, -0.02, 2.22144, 2.22144, 0], a=1, v=Speed000, r=Zone000)
  movel(p[0.77361, -0.11731, -0.02, 2.22144, 2.22144, 0], a=1, v=Speed000, r=Zone000)
  movel(p[0.77395, -0.11764, -0.02, 2.22144, 2.22144, 0], a=1, v=Speed000, r=Zone000)
  movel(p[0.77395, -0.11731, -0.02, 2.22144, 2.22144, 0], a=1, v=Speed000, r=Zone000)
  movel(p[0.77428, -0.11764, -0.02, 2.22144, 2.22144, 0], a=1, v=Speed000, r=Zone000)
  movel(p[0.77428, -0.11731, -0.02, 2.22144, 2.22144, 0], a=1, v=Speed000, r=Zone000)
  movel(p[0.77461, -0.11764, -0.02, 2.22144, 2.22144, 0], a=1, v=Speed000, r=Zone000)
  movel(p[0.77461, -0.11731, -0.02, 2.22144, 2.22144, 0], a=1, v=Speed000, r=Zone000)
  movel(p[0.77495, -0.11764, -0.02, 2.22144, 2.22144, 0], a=1, v=Speed000, r=Zone000)
  movel(p[0.77495, -0.11731, -0.02, 2.22144, 2.22144, 0], a=1, v=Speed000, r=Zone000)
  movel(p[0.77528, -0.11764, -0.02, 2.22144, 2.22144, 0], a=1, v=Speed000, r=Zone000)
  movel(p[0.77528, -0.11731, -0.02, 2.22144, 2.22144, 0], a=1, v=Speed000, r=Zone000)
  movel(p[0.77561, -0.11764, -0.02, 2.22144, 2.22144, 0], a=1, v=Speed000, r=Zone000)
  movel(p[0.77561, -0.11731, -0.02, 2.22144, 2.22144, 0], a=1, v=Speed000, r=Zone000)
  movel(p[0.77595, -0.11764, -0.02, 2.22144, 2.22144, 0], a=1, v=Speed000, r=Zone000)
  movel(p[0.77595, -0.11731, -0.02, 2.22144, 2.22144, 0], a=1, v=Speed000, r=Zone000)
  movel(p[0.77628, -0.11764, -0.02, 2.22144, 2.22144, 0], a=1, v=Speed000, r=Zone000)
  movel(p[0.77628, -0.11731, -0.02, 2.22144, 2.22144, 0], a=1, v=Speed000, r=Zone000)
  movel(p[0.77661, -0.11764, -0.02, 2.22144, 2.22144, 0], a=1, v=Speed000, r=Zone000)
  movel(p[0.77661, -0.11731, -0.02, 2.22144, 2.22144, 0], a=1, v=Speed000, r=Zone000)
  movel(p[0.77695, -0.11764, -0.02, 2.22144, 2.22144, 0], a=1, v=Speed000, r=Zone000)
  movel(p[0.77695, -0.11731, -0.02, 2.22144, 2.22144, 0], a=1, v=Speed000, r=Zone000)
  movel(p[0.77728, -0.11764, -0.02, 2.22144, 2.22144, 0], a=1, v=Speed000, r=Zone000)
  movel(p[0.77728, -0.11731, -0.02, 2.22144, 2.22144, 0], a=1, v=Speed000, r=Zone000)
  movel(p[0.77761, -0.11764, -0.02, 2.22144, 2.22144, 0], a=1, v=Speed000, r=Zone000)
  movel(p[0.77761, -0.11731, -0.02, 2.22144, 2.22144, 0], a=1, v=Speed000, r=Zone000)
  movel(p[0.77795, -0.11764, -0.02, 2.22144, 2.22144, 0], a=1, v=Speed000, r=Zone000)
  movel(p[0.77795, -0.11731, -0.02, 2.22144, 2.22144, 0], a=1, v=Speed000, r=Zone000)
  movel(p[0.77828, -0.11764, -0.02, 2.22144, 2.22144, 0], a=1, v=Speed000, r=Zone000)
  movel(p[0.77828, -0.11731, -0.02, 2.22144, 2.22144, 0], a=1, v=Speed000, r=Zone000)
  movel(p[0.77861, -0.11764, -0.02, 2.22144, 2.22144, 0], a=1, v=Speed000, r=Zone000)
  movel(p[0.77861, -0.11731, -0.02, 2.22144, 2.22144, 0], a=1, v=Speed000, r=Zone000)
  movel(p[0.77895, -0.11764, -0.02, 2.22144, 2.22144, 0], a=1, v=Speed000, r=Zone000)
  movel(p[0.77895, -0.11731, -0.02, 2.22144, 2.22144, 0], a=1, v=Speed000, r=Zone000)
  movel(p[0.77928, -0.11764, -0.02, 2.22144, 2.22144, 0], a=1, v=Speed000, r=Zone000)
  movel(p[0.77928, -0.11731, -0.02, 2.22144, 2.22144, 0], a=1, v=Speed000, r=Zone000)
  movel(p[0.77961, -0.11764, -0.02, 2.22144, 2.22144, 0], a=1, v=Speed000, r=Zone000)
  movel(p[0.77961, -0.11731, -0.02, 2.22144, 2.22144, 0], a=1, v=Speed000, r=Zone000)
  movel(p[0.77995, -0.11764, -0.02, 2.22144, 2.22144, 0], a=1, v=Speed000, r=Zone000)
  movel(p[0.77995, -0.11731, -0.02, 2.22144, 2.22144, 0], a=1, v=Speed000, r=Zone000)
  movel(p[0.78028, -0.11764, -0.02, 2.22144, 2.22144, 0], a=1, v=Speed000, r=Zone000)
  movel(p[0.78028, -0.11731, -0.02, 2.22144, 2.22144, 0], a=1, v=Speed000, r=Zone000)
  movel(p[0.78061, -0.11764, -0.02, 2.22144, 2.22144, 0], a=1, v=Speed000, r=Zone000)
  movel(p[0.78061, -0.11731, -0.02, 2.22144, 2.22144, 0], a=1, v=Speed000, r=Zone000)
  movel(p[0.78095, -0.11764, -0.02, 2.22144, 2.22144, 0], a=1, v=Speed000, r=Zone000)
  movel(p[0.78095, -0.11731, -0.02, 2.22144, 2.22144, 0], a=1, v=Speed000, r=Zone000)
  movel(p[0.78128, -0.11764, -0.02, 2.22144, 2.22144, 0], a=1, v=Speed000, r=Zone000)
  movel(p[0.78128, -0.11731, -0.02, 2.22144, 2.22144, 0], a=1, v=Speed000, r=Zone000)
  movel(p[0.78161, -0.11764, -0.02, 2.22144, 2.22144, 0], a=1, v=Speed000, r=Zone000)
  movel(p[0.78161, -0.11731, -0.02, 2.22144, 2.22144, 0], a=1, v=Speed000, r=Zone000)
  movel(p[0.78195, -0.11764, -0.02, 2.22144, 2.22144, 0], a=1, v=Speed000, r=Zone000)
  movel(p[0.78195, -0.11731, -0.02, 2.22144, 2.22144, 0], a=1, v=Speed000, r=Zone000)
  movel(p[0.78228, -0.11764, -0.02, 2.22144, 2.22144, 0], a=1, v=Speed000, r=Zone000)
  movel(p[0.78228, -0.11731, -0.02, 2.22144, 2.22144, 0], a=1, v=Speed000, r=Zone000)
  movel(p[0.78261, -0.11764, -0.02, 2.22144, 2.22144, 0], a=1, v=Speed000, r=Zone000)
  movel(p[0.78261, -0.11731, -0.02, 2.22144, 2.22144, 0], a=1, v=Speed000, r=Zone000)
  movel(p[0.78295, -0.11764, -0.02, 2.22144, 2.22144, 0], a=1, v=Speed000, r=Zone000)
  movel(p[0.78295, -0.11731, -0.02, 2.22144, 2.22144, 0], a=1, v=Speed000, r=Zone000)
  movel(p[0.78328, -0.11764, -0.02, 2.22144, 2.22144, 0], a=1, v=Speed000, r=Zone000)
  movel(p[0.78328, -0.11731, -0.02, 2.22144, 2.22144, 0], a=1, v=Speed000, r=Zone000)
  movel(p[0.78361, -0.11764, -0.02, 2.22144, 2.22144, 0], a=1, v=Speed000, r=Zone000)
  movel(p[0.78361, -0.11731, -0.02, 2.22144, 2.22144, 0], a=1, v=Speed000, r=Zone000)
  movel(p[0.78395, -0.11764, -0.02, 2.22144, 2.22144, 0], a=1, v=Speed000, r=Zone000)
  movel(p[0.78395, -0.11731, -0.02, 2.22144, 2.22144, 0], a=1, v=Speed000, r=Zone000)
  movel(p[0.78428, -0.11764, -0.02, 2.22144, 2.22144, 0], a=1, v=Speed000, r=Zone000)
  movel(p[0.78428, -0.11731, -0.02, 2.22144, 2.22144, 0], a=1, v=Speed000, r=Zone000)
  movel(p[0.78461, -0.11764, -0.02, 2.22144, 2.22144, 0], a=1, v=Speed000, r=Zone000)
